;FLAVOR:Marlin
;TIME:47664
;Filament used: 43.0297m
;Layer height: 0.2
;MINX:18.893
;MINY:18.894
;MINZ:0.2
;MAXX:281.107
;MAXY:281.106
;MAXZ:45
;Generated with Cura_SteamEngine 4.12.1
M140 S60
M105
M190 S60
M104 S210
M105
M109 S210
M82 ;absolute extrusion mode
M201 X500.00 Y500.00 Z100.00 E5000.00 ;Setup machine max acceleration
M203 X500.00 Y500.00 Z10.00 E50.00 ;Setup machine max feedrate
M204 P500.00 R1000.00 T500.00 ;Setup Print/Retract/Travel acceleration
M205 X8.00 Y8.00 Z0.40 E5.00 ;Setup Jerk
M220 S100 ;Reset Feedrate
M221 S100 ;Reset Flowrate

G28 ;Home

G92 E0 ;Reset Extruder
G1 Z2.0 F3000 ;Move Z Axis up
G1 X10.1 Y20 Z0.28 F5000.0 ;Move to start position
G1 X10.1 Y200.0 Z0.28 F1500.0 E15 ;Draw the first line
G1 X10.4 Y200.0 Z0.28 F5000.0 ;Move to side a little
G1 X10.4 Y20 Z0.28 F1500.0 E30 ;Draw the second line
G92 E0 ;Reset Extruder
G1 Z2.0 F3000 ;Move Z Axis up

G92 E0
G92 E0
G1 F2700 E-5
;LAYER_COUNT:225
;LAYER:0
M107
G0 F6000 X134.05 Y102.835 Z0.2
;TYPE:SKIRT
G1 F2700 E0
G1 F1200 X134.815 Y101.923 E0.03959
G1 X135.003 Y101.722 E0.04875
G1 X135.259 Y101.458 E0.06098
G1 X214.196 Y22.519 E3.77398
G1 X214.711 Y22.017 E3.7979
G1 X215.41 Y21.392 E3.82909
G1 X216.159 Y20.828 E3.86027
G1 X216.954 Y20.33 E3.89147
G1 X217.789 Y19.902 E3.92268
G1 X218.657 Y19.547 E3.95387
G1 X219.552 Y19.266 E3.98507
G1 X220.467 Y19.063 E4.01624
G1 X221.397 Y18.939 E4.04745
G1 X222.334 Y18.894 E4.07865
G1 X223.271 Y18.929 E4.10984
G1 X224.202 Y19.044 E4.14104
G1 X225.119 Y19.238 E4.17221
G1 X226.017 Y19.51 E4.20342
G1 X226.888 Y19.856 E4.23459
G1 X227.727 Y20.276 E4.2658
G1 X228.527 Y20.766 E4.297
G1 X229.282 Y21.322 E4.32819
G1 X229.91 Y21.867 E4.35584
G1 X230.148 Y22.09 E4.36669
G1 X230.405 Y22.339 E4.37859
G1 X277.515 Y69.45 E6.59453
G1 X277.983 Y69.93 E6.61682
G1 X278.609 Y70.629 E6.64803
G1 X279.172 Y71.378 E6.6792
G1 X279.67 Y72.173 E6.7104
G1 X280.098 Y73.007 E6.74158
G1 X280.454 Y73.875 E6.77278
G1 X280.734 Y74.77 E6.80397
G1 X280.938 Y75.686 E6.83518
G1 X281.062 Y76.615 E6.86636
G1 X281.107 Y77.552 E6.89756
G1 X281.072 Y78.489 E6.92874
G1 X280.957 Y79.42 E6.95994
G1 X280.763 Y80.338 E6.99115
G1 X280.492 Y81.236 E7.02235
G1 X280.145 Y82.107 E7.05353
G1 X279.726 Y82.946 E7.08472
G1 X279.236 Y83.746 E7.11593
G1 X278.68 Y84.501 E7.14711
G1 X278.138 Y85.126 E7.17463
G1 X277.933 Y85.345 E7.18461
G1 X277.68 Y85.606 E7.1967
G1 X198.761 Y164.523 E10.90876
G1 X198.229 Y165.04 E10.93343
G1 X197.529 Y165.664 E10.96462
G1 X196.535 Y166.389 E11.00554
G1 X196.199 Y166.604 E11.01881
G1 X194.328 Y167.775 E11.09222
G1 X192.204 Y169.188 E11.17707
G1 X190.169 Y170.629 E11.26
G1 X188.126 Y172.162 E11.34496
G1 X186.187 Y173.705 E11.42738
G1 X184.24 Y175.346 E11.51207
G1 X182.388 Y177 E11.59465
G1 X180.539 Y178.747 E11.67926
G1 X178.767 Y180.52 E11.76263
G1 X177.035 Y182.352 E11.84649
G1 X175.369 Y184.219 E11.92971
G1 X173.726 Y186.166 E12.01444
G1 X172.175 Y188.113 E12.09724
G1 X170.654 Y190.14 E12.18153
G1 X169.197 Y192.2 E12.26545
G1 X167.787 Y194.317 E12.35005
G1 X167.076 Y195.438 E12.3942
G1 X166.47 Y196.406 E12.43218
G1 X165.939 Y197.179 E12.46337
G1 X165.167 Y198.096 E12.50324
G1 X164.984 Y198.291 E12.51214
G1 X164.741 Y198.542 E12.52376
G1 X85.816 Y277.469 E16.23619
G1 X85.291 Y277.981 E16.26058
G1 X84.592 Y278.607 E16.29179
G1 X83.843 Y279.17 E16.32296
G1 X83.048 Y279.668 E16.35416
G1 X82.214 Y280.097 E16.38535
G1 X81.346 Y280.453 E16.41656
G1 X80.451 Y280.733 E16.44775
G1 X79.535 Y280.936 E16.47895
G1 X78.606 Y281.061 E16.51013
G1 X77.669 Y281.106 E16.54133
G1 X76.732 Y281.071 E16.57252
G1 X75.801 Y280.956 E16.60372
G1 X74.883 Y280.762 E16.63493
G1 X73.986 Y280.491 E16.66609
G1 X73.114 Y280.145 E16.69729
G1 X72.275 Y279.725 E16.7285
G1 X71.475 Y279.236 E16.75969
G1 X70.72 Y278.68 E16.79087
G1 X70.082 Y278.126 E16.81898
G1 X69.837 Y277.896 E16.83015
G1 X69.588 Y277.654 E16.8417
G1 X22.477 Y230.542 E19.05768
G1 X22.009 Y230.061 E19.08
G1 X21.384 Y229.361 E19.11121
G1 X20.821 Y228.611 E19.14241
G1 X20.324 Y227.816 E19.17359
G1 X19.897 Y226.981 E19.20478
G1 X19.542 Y226.113 E19.23597
G1 X19.263 Y225.218 E19.26715
G1 X19.06 Y224.302 E19.29836
G1 X18.937 Y223.372 E19.32956
G1 X18.893 Y222.435 E19.36076
G1 X18.929 Y221.498 E19.39195
G1 X19.045 Y220.567 E19.42315
G1 X19.24 Y219.65 E19.45433
G1 X19.512 Y218.752 E19.48554
G1 X19.859 Y217.881 E19.51673
G1 X20.28 Y217.043 E19.54792
G1 X20.77 Y216.244 E19.57909
G1 X21.327 Y215.489 E19.6103
G1 X21.933 Y214.798 E19.64087
G1 X22.181 Y214.538 E19.65282
G1 X22.363 Y214.352 E19.66147
G1 X101.232 Y135.485 E23.37118
G1 X101.765 Y134.966 E23.39592
G1 X102.464 Y134.341 E23.42711
G1 X103.491 Y133.594 E23.46935
G1 X103.801 Y133.396 E23.48158
G1 X105.672 Y132.225 E23.555
G1 X107.796 Y130.812 E23.63985
G1 X109.831 Y129.371 E23.72278
G1 X111.874 Y127.838 E23.80773
G1 X113.813 Y126.295 E23.89015
G1 X115.76 Y124.654 E23.97484
G1 X117.612 Y123 E24.05743
G1 X119.461 Y121.253 E24.14204
G1 X121.233 Y119.48 E24.22541
G1 X122.965 Y117.648 E24.30926
G1 X124.631 Y115.781 E24.39249
G1 X126.274 Y113.834 E24.47722
G1 X127.825 Y111.887 E24.56001
G1 X129.346 Y109.86 E24.6443
G1 X130.803 Y107.8 E24.72822
G1 X132.213 Y105.683 E24.81282
G1 X132.93 Y104.554 E24.85731
G1 X133.52 Y103.609 E24.89436
G1 X134.05 Y102.835 E24.92556
G0 F6000 X134.38 Y103.062
G1 F1200 X135.108 Y102.196 E24.96319
G1 X135.296 Y101.995 E24.97234
G1 X135.542 Y101.741 E24.9841
G1 X214.475 Y22.805 E28.69694
G1 X214.99 Y22.303 E28.72086
G1 X215.677 Y21.69 E28.75148
G1 X216.414 Y21.139 E28.78209
G1 X217.196 Y20.653 E28.81271
G1 X218.018 Y20.237 E28.84336
G1 X218.872 Y19.894 E28.87396
G1 X219.753 Y19.627 E28.90458
G1 X220.654 Y19.437 E28.93521
G1 X221.568 Y19.326 E28.96583
G1 X222.488 Y19.294 E28.99645
G1 X223.407 Y19.343 E29.02706
G1 X224.319 Y19.471 E29.05769
G1 X225.216 Y19.678 E29.08831
G1 X226.092 Y19.962 E29.11894
G1 X226.94 Y20.321 E29.14957
G1 X227.753 Y20.751 E29.18016
G1 X228.526 Y21.251 E29.21078
G1 X229.253 Y21.817 E29.24142
G1 X229.637 Y22.159 E29.25852
G1 X229.875 Y22.382 E29.26937
G1 X230.122 Y22.622 E29.28082
G1 X277.229 Y69.729 E31.49659
G1 X277.697 Y70.209 E31.51889
G1 X278.31 Y70.896 E31.54951
G1 X278.862 Y71.633 E31.58014
G1 X279.347 Y72.415 E31.61075
G1 X279.763 Y73.236 E31.64136
G1 X280.106 Y74.091 E31.672
G1 X280.374 Y74.972 E31.70263
G1 X280.564 Y75.872 E31.73322
G1 X280.675 Y76.786 E31.76384
G1 X280.707 Y77.706 E31.79446
G1 X280.658 Y78.626 E31.8251
G1 X280.53 Y79.538 E31.85573
G1 X280.323 Y80.435 E31.88635
G1 X280.04 Y81.311 E31.91697
G1 X279.681 Y82.158 E31.94757
G1 X279.25 Y82.972 E31.9782
G1 X278.75 Y83.745 E32.00882
G1 X278.185 Y84.472 E32.03945
G1 X277.846 Y84.853 E32.05641
G1 X277.641 Y85.072 E32.06639
G1 X277.397 Y85.323 E32.07803
G1 X198.482 Y164.236 E35.7899
G1 X197.95 Y164.753 E35.81458
G1 X197.263 Y165.365 E35.84518
G1 X196.318 Y166.053 E35.88405
G1 X195.987 Y166.265 E35.89713
G1 X194.099 Y167.446 E35.9712
G1 X191.997 Y168.845 E36.05518
G1 X189.92 Y170.316 E36.13983
G1 X187.883 Y171.845 E36.22454
G1 X185.926 Y173.402 E36.30772
G1 X183.999 Y175.026 E36.39154
G1 X182.111 Y176.712 E36.47573
G1 X180.247 Y178.473 E36.56102
G1 X178.493 Y180.228 E36.64354
G1 X176.729 Y182.094 E36.72895
G1 X175.065 Y183.958 E36.81206
G1 X173.423 Y185.905 E36.89677
G1 X171.858 Y187.87 E36.98032
G1 X170.323 Y189.915 E37.06537
G1 X168.881 Y191.953 E37.1484
G1 X167.464 Y194.082 E37.23346
G1 X166.701 Y195.283 E37.28079
G1 X166.131 Y196.194 E37.31653
G1 X165.609 Y196.952 E37.34714
G1 X164.875 Y197.823 E37.38503
G1 X164.692 Y198.018 E37.39392
G1 X164.458 Y198.259 E37.40509
G1 X85.537 Y277.183 E41.11736
G1 X85.012 Y277.695 E41.14175
G1 X84.325 Y278.308 E41.17238
G1 X83.588 Y278.86 E41.203
G1 X82.806 Y279.346 E41.23363
G1 X81.985 Y279.762 E41.26424
G1 X81.131 Y280.105 E41.29485
G1 X80.25 Y280.372 E41.32547
G1 X79.349 Y280.563 E41.3561
G1 X78.435 Y280.674 E41.38672
G1 X77.515 Y280.706 E41.41734
G1 X76.595 Y280.657 E41.44798
G1 X75.684 Y280.529 E41.47858
G1 X74.787 Y280.323 E41.50919
G1 X73.911 Y280.039 E41.53982
G1 X73.063 Y279.681 E41.57044
G1 X72.249 Y279.25 E41.60107
G1 X71.476 Y278.75 E41.63169
G1 X70.749 Y278.185 E41.66231
G1 X70.356 Y277.834 E41.67984
G1 X70.111 Y277.604 E41.69102
G1 X69.871 Y277.371 E41.70214
G1 X22.764 Y230.263 E43.91794
G1 X22.296 Y229.782 E43.94026
G1 X21.683 Y229.095 E43.97088
G1 X21.132 Y228.357 E44.00151
G1 X20.647 Y227.574 E44.03215
G1 X20.232 Y226.753 E44.06274
G1 X19.89 Y225.898 E44.09337
G1 X19.624 Y225.017 E44.12398
G1 X19.434 Y224.116 E44.15461
G1 X19.324 Y223.202 E44.18523
G1 X19.294 Y222.282 E44.21584
G1 X19.343 Y221.362 E44.24648
G1 X19.472 Y220.451 E44.27709
G1 X19.68 Y219.554 E44.30771
G1 X19.964 Y218.678 E44.33834
G1 X20.324 Y217.831 E44.36895
G1 X20.755 Y217.017 E44.39959
G1 X21.256 Y216.245 E44.4302
G1 X21.822 Y215.519 E44.46081
G1 X22.223 Y215.074 E44.48074
G1 X22.471 Y214.814 E44.49269
G1 X22.646 Y214.635 E44.50101
G1 X101.511 Y135.772 E48.21053
G1 X102.044 Y135.253 E48.23528
G1 X102.731 Y134.64 E48.2659
G1 X103.707 Y133.931 E48.30602
G1 X104.013 Y133.735 E48.31811
G1 X105.901 Y132.554 E48.39218
G1 X108.003 Y131.155 E48.47616
G1 X110.08 Y129.684 E48.56081
G1 X112.117 Y128.155 E48.64553
G1 X114.074 Y126.598 E48.7287
G1 X116.001 Y124.974 E48.81252
G1 X117.889 Y123.288 E48.89671
G1 X119.753 Y121.527 E48.982
G1 X121.507 Y119.772 E49.06453
G1 X123.271 Y117.906 E49.14993
G1 X124.935 Y116.042 E49.23304
G1 X126.577 Y114.095 E49.31775
G1 X128.142 Y112.13 E49.4013
G1 X129.677 Y110.085 E49.48635
G1 X131.119 Y108.047 E49.56938
G1 X132.536 Y105.918 E49.65445
G1 X133.299 Y104.717 E49.70177
G1 X133.859 Y103.821 E49.73691
G1 X134.38 Y103.062 E49.76753
G0 F6000 X134.71 Y103.289
G1 F1200 X135.4 Y102.469 E49.80318
G1 X135.588 Y102.268 E49.81233
G1 X135.824 Y102.024 E49.82362
G1 X214.754 Y23.092 E53.53629
G1 X215.269 Y22.59 E53.56021
G1 X215.943 Y21.989 E53.59025
G1 X216.668 Y21.45 E53.6203
G1 X217.437 Y20.977 E53.65032
G1 X218.245 Y20.574 E53.68036
G1 X219.086 Y20.244 E53.7104
G1 X219.953 Y19.989 E53.74046
G1 X220.838 Y19.813 E53.77047
G1 X221.736 Y19.715 E53.80052
G1 X222.639 Y19.697 E53.83056
G1 X223.54 Y19.759 E53.8606
G1 X224.432 Y19.901 E53.89064
G1 X225.308 Y20.121 E53.92068
G1 X226.161 Y20.417 E53.95071
G1 X226.984 Y20.788 E53.98074
G1 X227.772 Y21.23 E54.01079
G1 X228.517 Y21.74 E54.04081
G1 X229.363 Y22.451 E54.07757
G1 X229.601 Y22.674 E54.08842
G1 X229.839 Y22.905 E54.09945
G1 X276.942 Y70.008 E56.31503
G1 X277.41 Y70.488 E56.33733
G1 X278.011 Y71.162 E56.36736
G1 X278.551 Y71.887 E56.39743
G1 X279.024 Y72.656 E56.42746
G1 X279.427 Y73.464 E56.45749
G1 X279.757 Y74.305 E56.48754
G1 X280.011 Y75.171 E56.51755
G1 X280.188 Y76.057 E56.5476
G1 X280.286 Y76.955 E56.57765
G1 X280.304 Y77.858 E56.60769
G1 X280.242 Y78.759 E56.63773
G1 X280.101 Y79.651 E56.66776
G1 X279.881 Y80.527 E56.6978
G1 X279.584 Y81.38 E56.72785
G1 X279.214 Y82.203 E56.75786
G1 X278.772 Y82.991 E56.78791
G1 X278.262 Y83.736 E56.81794
G1 X277.554 Y84.58 E56.85458
G1 X277.349 Y84.799 E56.86456
G1 X277.114 Y85.041 E56.87577
G1 X198.204 Y163.949 E60.58741
G1 X197.672 Y164.466 E60.61209
G1 X196.997 Y165.066 E60.64212
G1 X196.101 Y165.717 E60.67896
G1 X195.775 Y165.926 E60.69184
G1 X193.871 Y167.117 E60.76654
G1 X191.75 Y168.529 E60.85128
G1 X189.711 Y169.972 E60.93437
G1 X187.639 Y171.527 E61.02053
G1 X185.664 Y173.099 E61.10449
G1 X183.74 Y174.721 E61.18818
G1 X181.834 Y176.424 E61.2732
G1 X179.99 Y178.165 E61.35754
G1 X178.203 Y179.953 E61.44162
G1 X176.439 Y181.818 E61.52701
G1 X174.745 Y183.717 E61.61164
G1 X173.12 Y185.643 E61.69546
G1 X171.541 Y187.626 E61.77977
G1 X170.01 Y189.666 E61.8646
G1 X168.538 Y191.746 E61.94935
G1 X167.119 Y193.878 E62.03453
G1 X166.398 Y195.013 E62.07926
G1 X165.792 Y195.981 E62.11724
G1 X165.279 Y196.725 E62.1473
G1 X164.584 Y197.549 E62.18315
G1 X164.401 Y197.744 E62.19205
G1 X164.176 Y197.976 E62.2028
G1 X85.258 Y276.896 E65.9149
G1 X84.733 Y277.408 E65.93929
G1 X84.059 Y278.01 E65.96935
G1 X83.334 Y278.549 E65.9994
G1 X82.565 Y279.022 E66.02943
G1 X81.757 Y279.425 E66.05946
G1 X80.916 Y279.756 E66.08952
G1 X80.05 Y280.01 E66.11954
G1 X79.164 Y280.187 E66.14959
G1 X78.267 Y280.285 E66.1796
G1 X77.364 Y280.303 E66.20964
G1 X76.463 Y280.241 E66.23968
G1 X75.571 Y280.1 E66.26971
G1 X74.695 Y279.88 E66.29975
G1 X73.842 Y279.584 E66.32978
G1 X73.018 Y279.213 E66.35984
G1 X72.23 Y278.771 E66.38989
G1 X71.485 Y278.261 E66.41992
G1 X70.63 Y277.543 E66.45705
G1 X70.385 Y277.313 E66.46823
G1 X70.154 Y277.088 E66.47896
G1 X23.05 Y229.984 E68.69458
G1 X22.582 Y229.503 E68.71691
G1 X21.982 Y228.828 E68.74694
G1 X21.443 Y228.103 E68.77699
G1 X20.971 Y227.334 E68.807
G1 X20.569 Y226.525 E68.83705
G1 X20.24 Y225.684 E68.86708
G1 X19.986 Y224.817 E68.89713
G1 X19.81 Y223.932 E68.92714
G1 X19.713 Y223.034 E68.95719
G1 X19.696 Y222.131 E68.98722
G1 X19.759 Y221.23 E69.01726
G1 X19.902 Y220.338 E69.04731
G1 X20.122 Y219.462 E69.07735
G1 X20.419 Y218.61 E69.10736
G1 X20.791 Y217.786 E69.13743
G1 X21.234 Y216.999 E69.16747
G1 X21.745 Y216.255 E69.19749
G1 X22.512 Y215.35 E69.23695
G1 X22.76 Y215.09 E69.2489
G1 X22.929 Y214.917 E69.25694
G1 X101.79 Y136.058 E72.96627
G1 X102.323 Y135.539 E72.99102
G1 X102.997 Y134.938 E73.02105
G1 X103.923 Y134.267 E73.05909
G1 X104.225 Y134.074 E73.07101
G1 X106.129 Y132.883 E73.1457
G1 X108.25 Y131.471 E73.23045
G1 X110.289 Y130.028 E73.31353
G1 X112.361 Y128.473 E73.3997
G1 X114.336 Y126.901 E73.48365
G1 X116.26 Y125.279 E73.56735
G1 X118.166 Y123.576 E73.65236
G1 X120.01 Y121.835 E73.73671
G1 X121.797 Y120.047 E73.82079
G1 X123.561 Y118.182 E73.90617
G1 X125.255 Y116.283 E73.99081
G1 X126.88 Y114.357 E74.07463
G1 X128.459 Y112.374 E74.15894
G1 X129.99 Y110.334 E74.24377
G1 X131.462 Y108.254 E74.32852
G1 X132.881 Y106.122 E74.4137
G1 X133.597 Y104.995 E74.45811
G1 X134.198 Y104.033 E74.49584
G1 X134.71 Y103.289 E74.52588
G1 F2700 E69.52588
;MESH:tinker.obj
G0 F6000 X110.196 Y142.666
G0 X109.43 Y143.433
G0 X30.984 Y222.39
G0 X77.61 Y269.272
;TYPE:WALL-INNER
G1 F2700 E74.52588
G1 F1200 X30.728 Y222.39 E76.73106
G1 X109.43 Y143.689 E80.43294
G1 X156.311 Y190.57 E82.63808
G1 X77.61 Y269.272 E86.33996
G0 F6000 X77.61 Y269.838
;TYPE:WALL-OUTER
G1 F1200 X30.162 Y222.39 E88.57177
G1 X109.43 Y143.123 E92.30027
G1 X156.877 Y190.57 E94.53203
G1 X77.61 Y269.838 E98.26053
G0 F6000 X77.61 Y269.456
G0 X77.806 Y268.919
G0 X77.61 Y268.722
;TYPE:SKIN
G1 F1200 X31.278 Y222.39 E100.43984
G1 X109.43 Y144.239 E104.11585
G1 X155.761 Y190.57 E106.29512
G1 X77.61 Y268.722 E109.97112
G1 F2700 E104.97112
G0 F6000 X77.806 Y268.919
G0 X30.984 Y222.39
G0 X31.32 Y221.955
G1 F2700 E109.97112
G0 F6000 X31.628 Y222.264
G1 F1200 X77.735 Y268.371 E112.13986
G0 F6000 X78.017 Y268.088
G1 F1200 X31.911 Y221.982 E114.30854
G0 F6000 X32.194 Y221.699
G1 F1200 X78.3 Y267.805 E116.47723
G0 F6000 X78.583 Y267.522
G1 F1200 X32.477 Y221.416 E118.64591
G0 F6000 X32.76 Y221.133
G1 F1200 X78.866 Y267.239 E120.8146
G0 F6000 X79.149 Y266.956
G1 F1200 X33.043 Y220.85 E122.98328
G0 F6000 X33.325 Y220.567
G1 F1200 X79.432 Y266.674 E125.15201
G0 F6000 X79.714 Y266.391
G1 F1200 X33.608 Y220.284 E127.32072
G0 F6000 X33.891 Y220.002
G1 F1200 X79.997 Y266.108 E129.48941
G0 F6000 X80.28 Y265.825
G1 F1200 X34.174 Y219.719 E131.65809
G0 F6000 X34.457 Y219.436
G1 F1200 X80.563 Y265.542 E133.82678
G0 F6000 X80.846 Y265.259
G1 F1200 X34.74 Y219.153 E135.99546
G0 F6000 X35.022 Y218.87
G1 F1200 X81.129 Y264.976 E138.16417
G0 F6000 X81.412 Y264.694
G1 F1200 X35.305 Y218.587 E140.3329
G0 F6000 X35.588 Y218.305
G1 F1200 X81.694 Y264.411 E142.50159
G0 F6000 X81.977 Y264.128
G1 F1200 X35.871 Y218.022 E144.67027
G0 F6000 X36.154 Y217.739
G1 F1200 X82.26 Y263.845 E146.83896
G0 F6000 X82.543 Y263.562
G1 F1200 X36.437 Y217.456 E149.00764
G0 F6000 X36.72 Y217.173
G1 F1200 X82.826 Y263.279 E151.17633
G0 F6000 X83.109 Y262.997
G1 F1200 X37.002 Y216.89 E153.34506
G0 F6000 X37.285 Y216.608
G1 F1200 X83.391 Y262.714 E155.51374
G0 F6000 X83.674 Y262.431
G1 F1200 X37.568 Y216.325 E157.68243
G0 F6000 X37.851 Y216.042
G1 F1200 X83.957 Y262.148 E159.85111
G0 F6000 X84.24 Y261.865
G1 F1200 X38.134 Y215.759 E162.0198
G0 F6000 X38.417 Y215.476
