;FLAVOR:Marlin
;TIME:25292
;Filament used: 29.2556m
;Layer height: 0.2
;MINX:75.5
;MINY:100.9
;MINZ:0.2
;MAXX:224.5
;MAXY:199.1
;MAXZ:50.8
;Generated with Cura_SteamEngine 4.12.1
M140 S60
M105
M190 S60
M104 S210
M105
M109 S210
M82 ;absolute extrusion mode
M201 X500.00 Y500.00 Z100.00 E5000.00 ;Setup machine max acceleration
M203 X500.00 Y500.00 Z10.00 E50.00 ;Setup machine max feedrate
M204 P500.00 R1000.00 T500.00 ;Setup Print/Retract/Travel acceleration
M205 X8.00 Y8.00 Z0.40 E5.00 ;Setup Jerk
M220 S100 ;Reset Feedrate
M221 S100 ;Reset Flowrate

G28 ;Home

G92 E0 ;Reset Extruder
G1 Z2.0 F3000 ;Move Z Axis up
G1 X10.1 Y20 Z0.28 F5000.0 ;Move to start position
G1 X10.1 Y200.0 Z0.28 F1500.0 E15 ;Draw the first line
G1 X10.4 Y200.0 Z0.28 F5000.0 ;Move to side a little
G1 X10.4 Y20 Z0.28 F1500.0 E30 ;Draw the second line
G92 E0 ;Reset Extruder
G1 Z2.0 F3000 ;Move Z Axis up

G92 E0
G92 E0
G1 F2700 E-5
;LAYER_COUNT:254
;LAYER:0
M107
G0 F6000 X80.126 Y102.951 Z0.2
;TYPE:SKIRT
G1 F2700 E0
G1 F1200 X80.912 Y102.439 E0.0312
G1 X81.739 Y101.997 E0.06239
G1 X82.601 Y101.627 E0.09359
G1 X83.491 Y101.331 E0.12478
G1 X84.403 Y101.113 E0.15597
G1 X85.33 Y100.972 E0.18716
G1 X86.201 Y100.913 E0.21619
G1 X86.522 Y100.904 E0.22687
G1 X86.83 Y100.9 E0.23712
G1 X212.793 Y100.9 E4.42667
G1 X213.649 Y100.911 E4.45514
G1 X214.585 Y100.965 E4.48632
G1 X215.513 Y101.097 E4.5175
G1 X216.427 Y101.309 E4.54871
G1 X217.319 Y101.598 E4.57989
G1 X218.184 Y101.961 E4.61109
G1 X219.014 Y102.397 E4.64228
G1 X219.805 Y102.902 E4.67349
G1 X220.549 Y103.473 E4.70468
G1 X221.242 Y104.105 E4.73588
G1 X221.879 Y104.793 E4.76706
G1 X222.454 Y105.534 E4.79826
G1 X222.965 Y106.32 E4.82944
G1 X223.407 Y107.148 E4.86066
G1 X223.776 Y108.01 E4.89184
G1 X224.071 Y108.9 E4.92303
G1 X224.289 Y109.812 E4.95422
G1 X224.429 Y110.74 E4.98543
G1 X224.487 Y111.601 E5.01413
G1 X224.496 Y111.921 E5.02478
G1 X224.5 Y112.23 E5.03506
G1 X224.499 Y187.5 E7.53855
G1 X224.49 Y188.227 E7.56273
G1 X224.439 Y189.164 E7.59394
G1 X224.307 Y190.092 E7.62512
G1 X224.098 Y191.006 E7.6563
G1 X223.811 Y191.899 E7.6875
G1 X223.449 Y192.765 E7.71872
G1 X223.015 Y193.596 E7.7499
G1 X222.511 Y194.387 E7.7811
G1 X221.942 Y195.132 E7.81227
G1 X221.311 Y195.827 E7.8435
G1 X220.624 Y196.465 E7.87468
G1 X219.885 Y197.042 E7.90586
G1 X219.099 Y197.554 E7.93706
G1 X218.273 Y197.997 E7.96824
G1 X217.411 Y198.369 E7.99946
G1 X216.522 Y198.665 E8.03063
G1 X215.61 Y198.885 E8.06183
G1 X214.683 Y199.026 E8.09302
G1 X213.799 Y199.087 E8.12249
G1 X213.478 Y199.096 E8.13317
G1 X213.17 Y199.1 E8.14342
G1 X87.065 Y199.099 E12.33768
G1 X86.367 Y199.09 E12.3609
G1 X85.431 Y199.038 E12.39208
G1 X84.502 Y198.906 E12.42329
G1 X83.588 Y198.696 E12.45448
G1 X82.695 Y198.409 E12.48568
G1 X81.83 Y198.046 E12.51688
G1 X80.999 Y197.612 E12.54806
G1 X80.208 Y197.108 E12.57926
G1 X79.463 Y196.538 E12.61046
G1 X78.769 Y195.907 E12.64165
G1 X78.132 Y195.22 E12.67282
G1 X77.555 Y194.48 E12.70403
G1 X77.043 Y193.694 E12.73523
G1 X76.6 Y192.867 E12.76643
G1 X76.229 Y192.006 E12.79761
G1 X75.933 Y191.116 E12.82881
G1 X75.714 Y190.204 E12.86
G1 X75.573 Y189.277 E12.89119
G1 X75.513 Y188.388 E12.92082
G1 X75.504 Y188.055 E12.9319
G1 X75.5 Y187.758 E12.94178
G1 X75.501 Y112.425 E15.44737
G1 X75.51 Y111.76 E15.46949
G1 X75.563 Y110.824 E15.50067
G1 X75.695 Y109.895 E15.53188
G1 X75.906 Y108.981 E15.56308
G1 X76.194 Y108.089 E15.59426
G1 X76.557 Y107.224 E15.62546
G1 X76.992 Y106.393 E15.65665
G1 X77.496 Y105.603 E15.68782
G1 X78.066 Y104.858 E15.71902
G1 X78.698 Y104.164 E15.75024
G1 X79.386 Y103.527 E15.78142
G1 X80.126 Y102.951 E15.81261
G0 F6000 X80.51 Y103.17
G1 F1200 X81.291 Y102.682 E15.84324
G1 X82.111 Y102.264 E15.87386
G1 X82.965 Y101.919 E15.90449
G1 X83.845 Y101.649 E15.93511
G1 X84.745 Y101.457 E15.96571
G1 X85.659 Y101.343 E15.99635
G1 X86.212 Y101.313 E16.01477
G1 X86.533 Y101.304 E16.02545
G1 X86.83 Y101.3 E16.03533
G1 X212.793 Y101.3 E20.22488
G1 X213.643 Y101.311 E20.25315
G1 X214.562 Y101.364 E20.28377
G1 X215.473 Y101.497 E20.31439
G1 X216.369 Y101.708 E20.345
G1 X217.243 Y101.996 E20.37561
G1 X218.09 Y102.359 E20.40626
G1 X218.901 Y102.794 E20.43687
G1 X219.671 Y103.298 E20.46748
G1 X220.395 Y103.867 E20.4981
G1 X221.067 Y104.497 E20.52874
G1 X221.682 Y105.182 E20.55936
G1 X222.235 Y105.918 E20.58998
G1 X222.722 Y106.699 E20.62059
G1 X223.139 Y107.52 E20.65122
G1 X223.484 Y108.374 E20.68185
G1 X223.753 Y109.254 E20.71246
G1 X223.945 Y110.155 E20.7431
G1 X224.058 Y111.068 E20.7737
G1 X224.087 Y111.612 E20.79182
G1 X224.096 Y111.932 E20.80246
G1 X224.1 Y112.23 E20.81238
G1 X224.099 Y187.495 E23.3157
G1 X224.09 Y188.222 E23.33988
G1 X224.039 Y189.141 E23.3705
G1 X223.908 Y190.053 E23.40114
G1 X223.698 Y190.949 E23.43175
G1 X223.412 Y191.824 E23.46237
G1 X223.051 Y192.671 E23.49299
G1 X222.617 Y193.483 E23.52361
G1 X222.115 Y194.255 E23.55424
G1 X221.547 Y194.98 E23.58487
G1 X220.919 Y195.653 E23.61549
G1 X220.235 Y196.269 E23.64611
G1 X219.5 Y196.823 E23.67672
G1 X218.72 Y197.312 E23.70734
G1 X217.9 Y197.731 E23.73797
G1 X217.047 Y198.077 E23.76858
G1 X216.167 Y198.348 E23.79921
G1 X215.267 Y198.541 E23.82982
G1 X214.353 Y198.656 E23.86046
G1 X213.788 Y198.687 E23.87928
G1 X213.467 Y198.696 E23.88996
G1 X213.17 Y198.7 E23.89984
G1 X87.07 Y198.699 E28.09394
G1 X86.372 Y198.69 E28.11716
G1 X85.453 Y198.638 E28.14778
G1 X84.542 Y198.507 E28.17839
G1 X83.646 Y198.297 E28.209
G1 X82.771 Y198.01 E28.23962
G1 X81.924 Y197.648 E28.27026
G1 X81.112 Y197.214 E28.30088
G1 X80.341 Y196.712 E28.33148
G1 X79.616 Y196.144 E28.36212
G1 X78.943 Y195.515 E28.39276
G1 X78.328 Y194.831 E28.42335
G1 X77.774 Y194.096 E28.45396
G1 X77.286 Y193.315 E28.48459
G1 X76.867 Y192.495 E28.51522
G1 X76.521 Y191.642 E28.54584
G1 X76.251 Y190.762 E28.57645
G1 X76.058 Y189.861 E28.6071
G1 X75.944 Y188.948 E28.6377
G1 X75.913 Y188.377 E28.65672
G1 X75.904 Y188.044 E28.6678
G1 X75.9 Y187.758 E28.67731
G1 X75.901 Y112.431 E31.1827
G1 X75.91 Y111.766 E31.20482
G1 X75.962 Y110.846 E31.23547
G1 X76.094 Y109.935 E31.26608
G1 X76.305 Y109.039 E31.2967
G1 X76.592 Y108.164 E31.32733
G1 X76.955 Y107.318 E31.35795
G1 X77.389 Y106.506 E31.38857
G1 X77.892 Y105.735 E31.41919
G1 X78.461 Y105.011 E31.44982
G1 X79.089 Y104.339 E31.48041
G1 X79.774 Y103.723 E31.51105
G1 X80.51 Y103.17 E31.54167
G0 F6000 X80.894 Y103.394
G1 F1200 X81.669 Y102.931 E31.57169
G1 X82.482 Y102.538 E31.60173
G1 X83.327 Y102.218 E31.63178
G1 X84.196 Y101.975 E31.66179
G1 X85.084 Y101.809 E31.69184
G1 X86.223 Y101.713 E31.72986
G1 X86.544 Y101.704 E31.74054
G1 X86.83 Y101.7 E31.75005
G1 X212.793 Y101.7 E35.9396
G1 X213.637 Y101.711 E35.96767
G1 X214.539 Y101.764 E35.99772
G1 X215.432 Y101.896 E36.02775
G1 X216.31 Y102.107 E36.05778
G1 X217.166 Y102.395 E36.08782
G1 X217.993 Y102.757 E36.11784
G1 X218.785 Y103.192 E36.1479
G1 X219.536 Y103.694 E36.17794
G1 X220.239 Y104.261 E36.20798
G1 X220.889 Y104.888 E36.23802
G1 X221.481 Y105.57 E36.26806
G1 X222.011 Y106.301 E36.29809
G1 X222.473 Y107.077 E36.32813
G1 X222.866 Y107.89 E36.35816
G1 X223.184 Y108.735 E36.38819
G1 X223.427 Y109.605 E36.41823
G1 X223.592 Y110.493 E36.44827
G1 X223.687 Y111.623 E36.48599
G1 X223.696 Y111.943 E36.49664
G1 X223.7 Y112.23 E36.50618
G1 X223.699 Y187.49 E39.00934
G1 X223.69 Y188.217 E39.03352
G1 X223.639 Y189.119 E39.06357
G1 X223.508 Y190.013 E39.09363
G1 X223.299 Y190.891 E39.12364
G1 X223.013 Y191.748 E39.15369
G1 X222.652 Y192.576 E39.18374
G1 X222.22 Y193.368 E39.21374
G1 X221.719 Y194.12 E39.2438
G1 X221.153 Y194.824 E39.27384
G1 X220.528 Y195.475 E39.30386
G1 X219.847 Y196.069 E39.33391
G1 X219.116 Y196.6 E39.36396
G1 X218.342 Y197.064 E39.39398
G1 X217.529 Y197.458 E39.42403
G1 X216.685 Y197.778 E39.45405
G1 X215.815 Y198.023 E39.48411
G1 X214.928 Y198.189 E39.51412
G1 X213.777 Y198.287 E39.55254
G1 X213.456 Y198.296 E39.56322
G1 X213.17 Y198.3 E39.57274
G1 X87.075 Y198.299 E43.76667
G1 X86.377 Y198.29 E43.78989
G1 X85.476 Y198.239 E43.81991
G1 X84.582 Y198.107 E43.84996
G1 X83.704 Y197.898 E43.87998
G1 X82.847 Y197.611 E43.91004
G1 X82.02 Y197.25 E43.94006
G1 X81.227 Y196.817 E43.97011
G1 X80.476 Y196.316 E44.00013
G1 X79.772 Y195.75 E44.03018
G1 X79.121 Y195.124 E44.06022
G1 X78.528 Y194.443 E44.09025
G1 X77.998 Y193.712 E44.12028
G1 X77.534 Y192.937 E44.15032
G1 X77.14 Y192.124 E44.18037
G1 X76.82 Y191.28 E44.21039
G1 X76.576 Y190.41 E44.24045
G1 X76.41 Y189.522 E44.27049
G1 X76.313 Y188.367 E44.30904
G1 X76.304 Y188.034 E44.32012
G1 X76.3 Y187.758 E44.3293
G1 X76.301 Y112.436 E46.83452
G1 X76.31 Y111.771 E46.85664
G1 X76.362 Y110.869 E46.8867
G1 X76.494 Y109.976 E46.91672
G1 X76.704 Y109.098 E46.94675
G1 X76.991 Y108.241 E46.97681
G1 X77.353 Y107.414 E47.00683
G1 X77.786 Y106.622 E47.03685
G1 X78.288 Y105.871 E47.0669
G1 X78.855 Y105.167 E47.09696
G1 X79.481 Y104.517 E47.12698
G1 X80.162 Y103.924 E47.15701
G1 X80.894 Y103.394 E47.18707
G1 F2700 E42.18707
;MESH:tinker.obj
G0 F6000 X87.31 Y111.235
G0 X87.31 Y112.71
G0 X87.282 Y187.318
G0 X212.9 Y187.5
;TYPE:WALL-INNER
G1 F2700 E47.18707
G1 F1200 X87.1 Y187.5 E51.37119
G1 X87.1 Y112.5 E53.8657
G1 X212.9 Y112.5 E58.04983
G1 X212.9 Y187.5 E60.54434
G0 F6000 X213.3 Y187.9
;TYPE:WALL-OUTER
G1 F1200 X86.7 Y187.9 E64.75507
G1 X86.7 Y112.1 E67.27619
G1 X213.3 Y112.1 E71.48692
G1 X213.3 Y187.9 E74.00804
G0 F6000 X213.03 Y187.63
G0 X212.79 Y187.11
G0 X212.51 Y187.11
;TYPE:SKIN
G1 F1200 X87.49 Y187.11 E78.16622
G1 X87.49 Y112.89 E80.63479
G1 X212.51 Y112.89 E84.79297
G1 X212.51 Y187.11 E87.26154
G1 F2700 E82.26154
G0 F6000 X212.79 Y187.11
G0 X212.79 Y113.354
G1 F2700 E87.26154
G0 F6000 X212.349 Y113.354
G1 F1200 X212.045 Y113.05 E87.27584
G0 F6000 X211.479 Y113.05
G1 F1200 X212.349 Y113.919 E87.31674
G0 F6000 X212.349 Y114.485
G1 F1200 X210.913 Y113.05 E87.38426
G0 F6000 X210.348 Y113.05
G1 F1200 X212.349 Y115.051 E87.47838
G0 F6000 X212.349 Y115.616
G1 F1200 X209.782 Y113.05 E87.5991
G0 F6000 X209.216 Y113.05
G1 F1200 X212.349 Y116.182 E87.74645
G0 F6000 X212.349 Y116.748
G1 F1200 X208.65 Y113.05 E87.92041
G0 F6000 X208.085 Y113.05
G1 F1200 X212.349 Y117.313 E88.12095
G0 F6000 X212.349 Y117.879
G1 F1200 X207.519 Y113.05 E88.34812
G0 F6000 X206.953 Y113.05
G1 F1200 X212.349 Y118.445 E88.60191
G0 F6000 X212.349 Y119.011
G1 F1200 X206.388 Y113.05 E88.88229
G0 F6000 X205.822 Y113.05
G1 F1200 X212.349 Y119.576 E89.18928
G0 F6000 X212.349 Y120.142
G1 F1200 X205.256 Y113.05 E89.52289
G0 F6000 X204.691 Y113.05
G1 F1200 X212.349 Y120.708 E89.8831
G0 F6000 X212.349 Y121.273
G1 F1200 X204.125 Y113.05 E90.26991
G0 F6000 X203.559 Y113.05
G1 F1200 X212.349 Y121.839 E90.68334
G0 F6000 X212.349 Y122.405
G1 F1200 X202.994 Y113.05 E91.12337
G0 F6000 X202.428 Y113.05
G1 F1200 X212.349 Y122.97 E91.59
G0 F6000 X212.349 Y123.536
G1 F1200 X201.862 Y113.05 E92.08325
G0 F6000 X201.297 Y113.05
G1 F1200 X212.349 Y124.102 E92.6031
G0 F6000 X212.349 Y124.667
G1 F1200 X200.731 Y113.05 E93.14955
G0 F6000 X200.165 Y113.05
G1 F1200 X212.349 Y125.233 E93.72263
G0 F6000 X212.349 Y125.799
G1 F1200 X199.599 Y113.05 E94.32233
G0 F6000 X199.034 Y113.05
G1 F1200 X212.349 Y126.364 E94.9486
G0 F6000 X212.349 Y126.93
G1 F1200 X198.468 Y113.05 E95.6015
G0 F6000 X197.902 Y113.05
G1 F1200 X212.349 Y127.496 E96.28101
G0 F6000 X212.349 Y128.061
G1 F1200 X197.337 Y113.05 E96.98711
G0 F6000 X196.771 Y113.05
G1 F1200 X212.349 Y128.627 E97.71983
G0 F6000 X212.349 Y129.193
G1 F1200 X196.205 Y113.05 E98.47917
G0 F6000 X195.64 Y113.05
G1 F1200 X212.349 Y129.759 E99.26511
G0 F6000 X212.349 Y130.324
G1 F1200 X195.074 Y113.05 E100.07765
G0 F6000 X194.508 Y113.05
G1 F1200 X212.349 Y130.89 E100.91681
G0 F6000 X212.349 Y131.456
G1 F1200 X193.943 Y113.05 E101.78257
G0 F6000 X193.377 Y113.05
G1 F1200 X212.349 Y132.021 E102.67493
G0 F6000 X212.349 Y132.587
G1 F1200 X192.811 Y113.05 E103.59392
G0 F6000 X192.246 Y113.05
G1 F1200 X212.349 Y133.153 E104.5395
G0 F6000 X212.349 Y133.718
G1 F1200 X191.68 Y113.05 E105.51168
G0 F6000 X191.114 Y113.05
G1 F1200 X212.349 Y134.284 E106.51049
G0 F6000 X212.349 Y134.85
G1 F1200 X190.549 Y113.05 E107.53589
G0 F6000 X189.983 Y113.05
G1 F1200 X212.349 Y135.415 E108.5879
G0 F6000 X212.349 Y135.981
G1 F1200 X189.417 Y113.05 E109.66653
G0 F6000 X188.851 Y113.05
G1 F1200 X212.349 Y136.547 E110.77178
G0 F6000 X212.349 Y137.112
G1 F1200 X188.286 Y113.05 E111.9036
G0 F6000 X187.72 Y113.05
G1 F1200 X212.349 Y137.678 E113.06205
G0 F6000 X212.349 Y138.244
G1 F1200 X187.154 Y113.05 E114.24712
G0 F6000 X186.589 Y113.05
G1 F1200 X212.349 Y138.81 E115.4588
G0 F6000 X212.349 Y139.375
G1 F1200 X186.023 Y113.05 E116.69707
G0 F6000 X185.457 Y113.05
G1 F1200 X212.349 Y139.941 E117.96196
G0 F6000 X212.349 Y140.507
G1 F1200 X184.892 Y113.05 E119.25345
G0 F6000 X184.326 Y113.05
G1 F1200 X212.349 Y141.072 E120.57155
G0 F6000 X212.349 Y141.638
G1 F1200 X183.76 Y113.05 E121.91626
G0 F6000 X183.195 Y113.05
G1 F1200 X212.349 Y142.204 E123.28758
G0 F6000 X212.349 Y142.769
G1 F1200 X182.629 Y113.05 E124.68549
G0 F6000 X182.063 Y113.05
G1 F1200 X212.349 Y143.335 E126.11003
G0 F6000 X212.349 Y143.901
G1 F1200 X181.498 Y113.05 E127.56116
G0 F6000 X180.932 Y113.05
G1 F1200 X212.349 Y144.466 E129.0389
G0 F6000 X212.349 Y145.032
G1 F1200 X180.366 Y113.05 E130.54326
G0 F6000 X179.8 Y113.05
G1 F1200 X212.349 Y145.598 E132.07424
G0 F6000 X212.349 Y146.163
G1 F1200 X179.235 Y113.05 E133.6318
G0 F6000 X178.669 Y113.05
G1 F1200 X212.349 Y146.729 E135.21598
G0 F6000 X212.349 Y147.295
G1 F1200 X178.103 Y113.05 E136.82678
G0 F6000 X177.538 Y113.05
G1 F1200 X212.349 Y147.86 E138.46416
G0 F6000 X212.349 Y148.426
G1 F1200 X176.972 Y113.05 E140.12816
G0 F6000 X176.406 Y113.05
G1 F1200 X212.349 Y148.992 E141.81879
G0 F6000 X212.349 Y149.558
G1 F1200 X175.841 Y113.05 E143.53601
G0 F6000 X175.275 Y113.05
G1 F1200 X212.349 Y150.123 E145.27984
G0 F6000 X212.349 Y150.689
G1 F1200 X174.709 Y113.05 E147.05028
G0 F6000 X174.144 Y113.05
G1 F1200 X212.349 Y151.255 E148.84733
G0 F6000 X212.349 Y151.82
G1 F1200 X173.578 Y113.05 E150.67097
G0 F6000 X173.012 Y113.05
G1 F1200 X212.349 Y152.386 E152.52124
G0 F6000 X212.349 Y152.952
G1 F1200 X172.447 Y113.05 E154.39811
G0 F6000 X171.881 Y113.05
G1 F1200 X212.349 Y153.517 E156.30158
G0 F6000 X212.349 Y154.083
G1 F1200 X171.315 Y113.05 E158.23167
G0 F6000 X170.75 Y113.05
G1 F1200 X212.349 Y154.649 E160.18836
G0 F6000 X212.349 Y155.214
G1 F1200 X170.184 Y113.05 E162.17165
G0 F6000 X169.618 Y113.05
G1 F1200 X212.349 Y155.78 E164.18156
G0 F6000 X212.349 Y156.346
G1 F1200 X169.052 Y113.05 E166.21809
G0 F6000 X168.487 Y113.05
G1 F1200 X212.349 Y156.911 E168.2812
G0 F6000 X212.349 Y157.477
G1 F1200 X167.921 Y113.05 E170.37094
G0 F6000 X167.355 Y113.05
G1 F1200 X212.349 Y158.043 E172.48729
G0 F6000 X212.349 Y158.609
G1 F1200 X166.79 Y113.05 E174.63025
G0 F6000 X166.224 Y113.05
G1 F1200 X212.349 Y159.174 E176.7998
G0 F6000 X212.349 Y159.74
G1 F1200 X165.658 Y113.05 E178.99598
G0 F6000 X165.093 Y113.05
G1 F1200 X212.349 Y160.306 E181.21876
G0 F6000 X212.349 Y160.871
G1 F1200 X164.527 Y113.05 E183.46813
G0 F6000 X163.961 Y113.05
G1 F1200 X212.349 Y161.437 E185.74413
G0 F6000 X212.349 Y162.003
G1 F1200 X163.396 Y113.05 E188.04673
G0 F6000 X162.83 Y113.05
G1 F1200 X212.349 Y162.568 E190.37593
G0 F6000 X212.349 Y163.134
G1 F1200 X162.264 Y113.05 E192.73175
G0 F6000 X161.699 Y113.05
G1 F1200 X212.349 Y163.7 E195.11417
G0 F6000 X212.349 Y164.265
G1 F1200 X161.133 Y113.05 E197.52319
G0 F6000 X160.567 Y113.05
G1 F1200 X212.349 Y164.831 E199.95884
G0 F6000 X212.349 Y165.397
G1 F1200 X160.002 Y113.05 E202.42108
G0 F6000 X159.436 Y113.05
G1 F1200 X212.349 Y165.962 E204.90992
G0 F6000 X212.349 Y166.528
G1 F1200 X158.87 Y113.05 E207.42539
G0 F6000 X158.304 Y113.05
G1 F1200 X212.349 Y167.094 E209.96747
G0 F6000 X212.349 Y167.659
G1 F1200 X157.739 Y113.05 E212.53614
G0 F6000 X157.173 Y113.05
G1 F1200 X212.349 Y168.225 E215.13142
G0 F6000 X212.349 Y168.791
G1 F1200 X156.607 Y113.05 E217.75333
G0 F6000 X156.042 Y113.05
G1 F1200 X212.349 Y169.357 E220.40184
G0 F6000 X212.349 Y169.922
G1 F1200 X155.476 Y113.05 E223.07695
G0 F6000 X154.91 Y113.05
G1 F1200 X212.349 Y170.488 E225.77868
G0 F6000 X212.349 Y171.054
