;FLAVOR:Marlin
;TIME:6925
;Filament used: 9.86595m
;Layer height: 0.2
;MINX:91.366
;MINY:117.267
;MINZ:0.2
;MAXX:214.297
;MAXY:215.467
;MAXZ:8.4
;Generated with Cura_SteamEngine 4.12.1
M140 S60
M105
M190 S60
M104 S210
M105
M109 S210
M82 ;absolute extrusion mode
M201 X500.00 Y500.00 Z100.00 E5000.00 ;Setup machine max acceleration
M203 X500.00 Y500.00 Z10.00 E50.00 ;Setup machine max feedrate
M204 P500.00 R1000.00 T500.00 ;Setup Print/Retract/Travel acceleration
M205 X8.00 Y8.00 Z0.40 E5.00 ;Setup Jerk
M220 S100 ;Reset Feedrate
M221 S100 ;Reset Flowrate

G28 ;Home

G92 E0 ;Reset Extruder
G1 Z2.0 F3000 ;Move Z Axis up
G1 X10.1 Y20 Z0.28 F5000.0 ;Move to start position
G1 X10.1 Y200.0 Z0.28 F1500.0 E15 ;Draw the first line
G1 X10.4 Y200.0 Z0.28 F5000.0 ;Move to side a little
G1 X10.4 Y20 Z0.28 F1500.0 E30 ;Draw the second line
G92 E0 ;Reset Extruder
G1 Z2.0 F3000 ;Move Z Axis up

G92 E0
G92 E0
G1 F2700 E-5
;LAYER_COUNT:42
;LAYER:0
M107
G0 F6000 X95.252 Y119.894 Z0.2
;TYPE:SKIRT
G1 F2700 E0
G1 F1200 X95.992 Y119.318 E0.03119
G1 X96.778 Y118.806 E0.06239
G1 X97.605 Y118.364 E0.09358
G1 X98.467 Y117.994 E0.12478
G1 X99.357 Y117.698 E0.15597
G1 X100.269 Y117.48 E0.18716
G1 X101.196 Y117.339 E0.21835
G1 X102.067 Y117.28 E0.24738
G1 X102.388 Y117.271 E0.25806
G1 X102.696 Y117.267 E0.26831
G1 X202.59 Y117.267 E3.5908
G1 X203.446 Y117.278 E3.61927
G1 X204.382 Y117.332 E3.65045
G1 X205.31 Y117.464 E3.68163
G1 X206.224 Y117.676 E3.71284
G1 X207.116 Y117.965 E3.74402
G1 X207.981 Y118.328 E3.77522
G1 X208.811 Y118.764 E3.80641
G1 X209.602 Y119.269 E3.83762
G1 X210.346 Y119.84 E3.86881
G1 X211.039 Y120.472 E3.90001
G1 X211.676 Y121.16 E3.93119
G1 X212.251 Y121.901 E3.96239
G1 X212.762 Y122.687 E3.99357
G1 X213.204 Y123.515 E4.02479
G1 X213.573 Y124.377 E4.05597
G1 X213.868 Y125.267 E4.08716
G1 X214.086 Y126.179 E4.11835
G1 X214.226 Y127.107 E4.14956
G1 X214.284 Y127.968 E4.17826
G1 X214.293 Y128.288 E4.18891
G1 X214.297 Y128.597 E4.19919
G1 X214.296 Y203.867 E6.70268
G1 X214.287 Y204.594 E6.72686
G1 X214.236 Y205.531 E6.75807
G1 X214.104 Y206.459 E6.78925
G1 X213.895 Y207.373 E6.82043
G1 X213.608 Y208.266 E6.85163
G1 X213.246 Y209.132 E6.88285
G1 X212.812 Y209.963 E6.91403
G1 X212.308 Y210.754 E6.94523
G1 X211.739 Y211.499 E6.97641
G1 X211.108 Y212.194 E7.00763
G1 X210.421 Y212.832 E7.03881
G1 X209.682 Y213.409 E7.06999
G1 X208.896 Y213.921 E7.10119
G1 X208.07 Y214.364 E7.13237
G1 X207.208 Y214.736 E7.1636
G1 X206.319 Y215.032 E7.19476
G1 X205.407 Y215.252 E7.22596
G1 X204.48 Y215.393 E7.25715
G1 X203.596 Y215.454 E7.28662
G1 X203.275 Y215.463 E7.2973
G1 X202.967 Y215.467 E7.30755
G1 X102.931 Y215.466 E10.63476
G1 X102.233 Y215.457 E10.65798
G1 X101.297 Y215.405 E10.68915
G1 X100.368 Y215.273 E10.72036
G1 X99.454 Y215.063 E10.75156
G1 X98.561 Y214.776 E10.78275
G1 X97.696 Y214.413 E10.81395
G1 X96.865 Y213.979 E10.84514
G1 X96.074 Y213.475 E10.87633
G1 X95.329 Y212.905 E10.90753
G1 X94.635 Y212.274 E10.93873
G1 X93.998 Y211.587 E10.96989
G1 X93.421 Y210.847 E11.0011
G1 X92.909 Y210.061 E11.0323
G1 X92.466 Y209.234 E11.0635
G1 X92.095 Y208.373 E11.09468
G1 X91.799 Y207.483 E11.12588
G1 X91.58 Y206.571 E11.15708
G1 X91.439 Y205.644 E11.18826
G1 X91.379 Y204.755 E11.2179
G1 X91.37 Y204.422 E11.22898
G1 X91.366 Y204.125 E11.23886
G1 X91.367 Y128.792 E13.74444
G1 X91.376 Y128.127 E13.76656
G1 X91.429 Y127.191 E13.79774
G1 X91.561 Y126.262 E13.82895
G1 X91.772 Y125.348 E13.86015
G1 X92.06 Y124.456 E13.89133
G1 X92.423 Y123.591 E13.92253
G1 X92.858 Y122.76 E13.95373
G1 X93.362 Y121.97 E13.98489
G1 X93.932 Y121.225 E14.01609
G1 X94.564 Y120.531 E14.04731
G1 X95.252 Y119.894 E14.0785
G0 F6000 X95.64 Y120.09
G1 F1200 X96.376 Y119.537 E14.10912
G1 X97.157 Y119.049 E14.13975
G1 X97.977 Y118.631 E14.17036
G1 X98.831 Y118.286 E14.20099
G1 X99.711 Y118.016 E14.23161
G1 X100.611 Y117.824 E14.26222
G1 X101.525 Y117.71 E14.29285
G1 X102.078 Y117.68 E14.31127
G1 X102.399 Y117.671 E14.32195
G1 X102.696 Y117.667 E14.33183
G1 X202.59 Y117.667 E17.65432
G1 X203.44 Y117.678 E17.68259
G1 X204.359 Y117.731 E17.71321
G1 X205.27 Y117.864 E17.74383
G1 X206.166 Y118.075 E17.77445
G1 X207.04 Y118.363 E17.80505
G1 X207.887 Y118.726 E17.8357
G1 X208.698 Y119.161 E17.86631
G1 X209.468 Y119.665 E17.89692
G1 X210.192 Y120.234 E17.92755
G1 X210.864 Y120.864 E17.95819
G1 X211.479 Y121.549 E17.9888
G1 X212.032 Y122.285 E18.01942
G1 X212.519 Y123.066 E18.05004
G1 X212.936 Y123.887 E18.08066
G1 X213.281 Y124.741 E18.1113
G1 X213.55 Y125.621 E18.1419
G1 X213.742 Y126.522 E18.17254
G1 X213.855 Y127.435 E18.20314
G1 X213.884 Y127.979 E18.22126
G1 X213.893 Y128.299 E18.23191
G1 X213.897 Y128.597 E18.24182
G1 X213.896 Y203.862 E20.74514
G1 X213.887 Y204.589 E20.76933
G1 X213.836 Y205.508 E20.79994
G1 X213.705 Y206.42 E20.83058
G1 X213.495 Y207.316 E20.86119
G1 X213.209 Y208.191 E20.89181
G1 X212.848 Y209.038 E20.92243
G1 X212.414 Y209.85 E20.95306
G1 X211.912 Y210.622 E20.98368
G1 X211.344 Y211.347 E21.01432
G1 X210.716 Y212.02 E21.04493
G1 X210.032 Y212.636 E21.07555
G1 X209.297 Y213.19 E21.10616
G1 X208.517 Y213.679 E21.13678
G1 X207.697 Y214.098 E21.16741
G1 X206.844 Y214.444 E21.19803
G1 X205.964 Y214.715 E21.22865
G1 X205.064 Y214.908 E21.25927
G1 X204.15 Y215.023 E21.2899
G1 X203.585 Y215.054 E21.30872
G1 X203.264 Y215.063 E21.31941
G1 X202.967 Y215.067 E21.32928
G1 X102.936 Y215.066 E24.65633
G1 X102.238 Y215.057 E24.67955
G1 X101.319 Y215.005 E24.71016
G1 X100.408 Y214.874 E24.74077
G1 X99.512 Y214.664 E24.77138
G1 X98.637 Y214.377 E24.80201
G1 X97.79 Y214.015 E24.83265
G1 X96.978 Y213.581 E24.86327
G1 X96.207 Y213.079 E24.89387
G1 X95.482 Y212.511 E24.9245
G1 X94.809 Y211.882 E24.95514
G1 X94.194 Y211.198 E24.98573
G1 X93.64 Y210.463 E25.01635
G1 X93.152 Y209.682 E25.04698
G1 X92.733 Y208.862 E25.0776
G1 X92.387 Y208.009 E25.10822
G1 X92.117 Y207.129 E25.13884
G1 X91.924 Y206.228 E25.16948
G1 X91.81 Y205.315 E25.20009
G1 X91.779 Y204.744 E25.21911
G1 X91.77 Y204.411 E25.23018
G1 X91.766 Y204.125 E25.2397
G1 X91.767 Y128.798 E27.74508
G1 X91.776 Y128.133 E27.7672
G1 X91.828 Y127.213 E27.79785
G1 X91.96 Y126.302 E27.82847
G1 X92.171 Y125.406 E27.85909
G1 X92.458 Y124.531 E27.88971
G1 X92.821 Y123.685 E27.92033
G1 X93.255 Y122.873 E27.95096
G1 X93.758 Y122.102 E27.98157
G1 X94.327 Y121.378 E28.0122
G1 X94.955 Y120.706 E28.04279
G1 X95.64 Y120.09 E28.07343
G0 F6000 X96.028 Y120.291
G1 F1200 X96.76 Y119.761 E28.10349
G1 X97.535 Y119.298 E28.13352
G1 X98.348 Y118.905 E28.16355
G1 X99.193 Y118.585 E28.1936
G1 X100.062 Y118.342 E28.22362
G1 X100.95 Y118.176 E28.25366
G1 X102.089 Y118.08 E28.29168
G1 X102.41 Y118.071 E28.30236
G1 X102.696 Y118.067 E28.31187
G1 X202.59 Y118.067 E31.63436
G1 X203.434 Y118.078 E31.66244
G1 X204.336 Y118.131 E31.69249
G1 X205.229 Y118.263 E31.72251
G1 X206.107 Y118.474 E31.75255
G1 X206.963 Y118.762 E31.78258
G1 X207.79 Y119.124 E31.81261
G1 X208.582 Y119.559 E31.84266
G1 X209.333 Y120.061 E31.87271
G1 X210.036 Y120.628 E31.90275
G1 X210.686 Y121.255 E31.93279
G1 X211.278 Y121.937 E31.96282
G1 X211.808 Y122.668 E31.99285
G1 X212.27 Y123.444 E32.02289
G1 X212.663 Y124.257 E32.05293
G1 X212.981 Y125.102 E32.08296
G1 X213.224 Y125.972 E32.113
G1 X213.389 Y126.86 E32.14304
G1 X213.484 Y127.99 E32.18076
G1 X213.493 Y128.31 E32.1914
G1 X213.497 Y128.597 E32.20095
G1 X213.496 Y203.857 E34.70411
G1 X213.487 Y204.584 E34.72829
G1 X213.436 Y205.486 E34.75834
G1 X213.305 Y206.38 E34.78839
G1 X213.096 Y207.258 E34.81841
G1 X212.81 Y208.115 E34.84846
G1 X212.449 Y208.943 E34.8785
G1 X212.017 Y209.735 E34.90851
G1 X211.516 Y210.487 E34.93856
G1 X210.95 Y211.191 E34.96861
G1 X210.325 Y211.842 E34.99862
G1 X209.644 Y212.436 E35.02868
G1 X208.913 Y212.967 E35.05873
G1 X208.139 Y213.431 E35.08874
G1 X207.326 Y213.825 E35.11879
G1 X206.482 Y214.145 E35.14881
G1 X205.612 Y214.39 E35.17887
G1 X204.725 Y214.556 E35.20889
G1 X203.574 Y214.654 E35.24731
G1 X203.253 Y214.663 E35.25799
G1 X202.967 Y214.667 E35.2675
G1 X102.941 Y214.666 E38.59438
G1 X102.243 Y214.657 E38.6176
G1 X101.342 Y214.606 E38.64762
G1 X100.448 Y214.474 E38.67767
G1 X99.57 Y214.265 E38.70769
G1 X98.713 Y213.978 E38.73775
G1 X97.886 Y213.617 E38.76776
G1 X97.093 Y213.184 E38.79781
G1 X96.342 Y212.683 E38.82784
G1 X95.638 Y212.117 E38.85788
G1 X94.987 Y211.491 E38.88792
G1 X94.394 Y210.81 E38.91796
G1 X93.864 Y210.079 E38.94799
G1 X93.4 Y209.304 E38.97803
G1 X93.006 Y208.491 E39.00808
G1 X92.686 Y207.647 E39.0381
G1 X92.442 Y206.777 E39.06815
G1 X92.276 Y205.889 E39.0982
G1 X92.179 Y204.734 E39.13675
G1 X92.17 Y204.401 E39.14783
G1 X92.166 Y204.125 E39.15701
G1 X92.167 Y128.803 E41.66223
G1 X92.176 Y128.138 E41.68435
G1 X92.228 Y127.236 E41.7144
G1 X92.36 Y126.343 E41.74443
G1 X92.57 Y125.465 E41.77445
G1 X92.857 Y124.608 E41.80451
G1 X93.219 Y123.781 E41.83454
G1 X93.652 Y122.989 E41.86456
G1 X94.154 Y122.238 E41.89461
G1 X94.721 Y121.534 E41.92467
G1 X95.347 Y120.884 E41.95469
G1 X96.028 Y120.291 E41.98472
G1 F2700 E36.98472
;MESH:tinker.obj(1)
G0 F6000 X102.786 Y127.602
G0 X102.786 Y128.687
G0 X102.966 Y203.867
;TYPE:WALL-INNER
G1 F2700 E41.98472
G1 F1200 X102.966 Y128.867 E44.47923
G1 X202.697 Y128.867 E47.7963
G1 X202.697 Y203.867 E50.29081
G1 X102.966 Y203.867 E53.60787
G0 F6000 X102.566 Y204.267
;TYPE:WALL-OUTER
G1 F1200 X102.566 Y128.467 E56.12899
G1 X203.097 Y128.467 E59.47267
G1 X203.097 Y204.267 E61.99378
G1 X102.566 Y204.267 E65.33746
G0 F6000 X102.836 Y203.997
G0 X103.076 Y203.477
G0 X103.356 Y203.477
;TYPE:SKIN
G1 F1200 X103.356 Y129.257 E67.80603
G1 X202.307 Y129.257 E71.09715
G1 X202.307 Y203.477 E73.56572
G1 X103.356 Y203.477 E76.85684
G0 F6000 X103.755 Y203.315
G1 F1200 X103.516 Y203.076 E76.86808
G0 F6000 X103.516 Y202.511
G1 F1200 X104.32 Y203.315 E76.9059
G0 F6000 X104.886 Y203.315
G1 F1200 X103.516 Y201.945 E76.97034
G0 F6000 X103.516 Y201.379
G1 F1200 X105.452 Y203.315 E77.0614
G0 F6000 X106.017 Y203.315
G1 F1200 X103.516 Y200.814 E77.17904
G0 F6000 X103.516 Y200.248
G1 F1200 X106.583 Y203.315 E77.32331
G0 F6000 X107.149 Y203.315
G1 F1200 X103.516 Y199.682 E77.49419
G0 F6000 X103.516 Y199.117
G1 F1200 X107.714 Y203.315 E77.69165
G0 F6000 X108.28 Y203.315
G1 F1200 X103.516 Y198.551 E77.91574
G0 F6000 X103.516 Y197.985
G1 F1200 X108.846 Y203.315 E78.16644
G0 F6000 X109.412 Y203.315
G1 F1200 X103.516 Y197.419 E78.44377
G0 F6000 X103.516 Y196.854
G1 F1200 X109.977 Y203.315 E78.74768
G0 F6000 X110.543 Y203.315
G1 F1200 X103.516 Y196.288 E79.07821
G0 F6000 X103.516 Y195.722
G1 F1200 X111.109 Y203.315 E79.43536
G0 F6000 X111.674 Y203.315
G1 F1200 X103.516 Y195.157 E79.81908
G0 F6000 X103.516 Y194.591
G1 F1200 X112.24 Y203.315 E80.22943
G0 F6000 X112.806 Y203.315
G1 F1200 X103.516 Y194.025 E80.66641
G0 F6000 X103.516 Y193.46
G1 F1200 X113.371 Y203.315 E81.12996
G0 F6000 X113.937 Y203.315
G1 F1200 X103.516 Y192.894 E81.62013
G0 F6000 X103.516 Y192.328
G1 F1200 X114.503 Y203.315 E82.13692
G0 F6000 X115.068 Y203.315
G1 F1200 X103.516 Y191.763 E82.68029
G0 F6000 X103.516 Y191.197
G1 F1200 X115.634 Y203.315 E83.25029
G0 F6000 X116.2 Y203.315
G1 F1200 X103.516 Y190.631 E83.8469
G0 F6000 X103.516 Y190.066
G1 F1200 X116.765 Y203.315 E84.4701
G0 F6000 X117.331 Y203.315
G1 F1200 X103.516 Y189.5 E85.11991
G0 F6000 X103.516 Y188.934
G1 F1200 X117.897 Y203.315 E85.79635
G0 F6000 X118.463 Y203.315
G1 F1200 X103.516 Y188.369 E86.49939
G0 F6000 X103.516 Y187.803
G1 F1200 X119.028 Y203.315 E87.22902
G0 F6000 X119.594 Y203.315
G1 F1200 X103.516 Y187.237 E87.98528
G0 F6000 X103.516 Y186.671
G1 F1200 X120.16 Y203.315 E88.76817
G0 F6000 X120.725 Y203.315
G1 F1200 X103.516 Y186.106 E89.57763
G0 F6000 X103.516 Y185.54
G1 F1200 X121.291 Y203.315 E90.41371
G0 F6000 X121.857 Y203.315
G1 F1200 X103.516 Y184.974 E91.27641
G0 F6000 X103.516 Y184.409
G1 F1200 X122.422 Y203.315 E92.16569
G0 F6000 X122.988 Y203.315
G1 F1200 X103.516 Y183.843 E93.0816
G0 F6000 X103.516 Y183.277
G1 F1200 X123.554 Y203.315 E94.02412
G0 F6000 X124.119 Y203.315
G1 F1200 X103.516 Y182.712 E94.99322
G0 F6000 X103.516 Y182.146
G1 F1200 X124.685 Y203.315 E95.98895
G0 F6000 X125.251 Y203.315
G1 F1200 X103.516 Y181.58 E97.0113
G0 F6000 X103.516 Y181.015
G1 F1200 X125.816 Y203.315 E98.06022
G0 F6000 X126.382 Y203.315
G1 F1200 X103.516 Y180.449 E99.13577
G0 F6000 X103.516 Y179.883
G1 F1200 X126.948 Y203.315 E100.23794
G0 F6000 X127.513 Y203.315
G1 F1200 X103.516 Y179.318 E101.36668
G0 F6000 X103.516 Y178.752
G1 F1200 X128.079 Y203.315 E102.52205
G0 F6000 X128.645 Y203.315
G1 F1200 X103.516 Y178.186 E103.70404
G0 F6000 X103.516 Y177.62
G1 F1200 X129.211 Y203.315 E104.91265
G0 F6000 X129.776 Y203.315
G1 F1200 X103.516 Y177.055 E106.14784
G0 F6000 X103.516 Y176.489
G1 F1200 X130.342 Y203.315 E107.40966
G0 F6000 X130.908 Y203.315
G1 F1200 X103.516 Y175.923 E108.69809
G0 F6000 X103.516 Y175.358
G1 F1200 X131.473 Y203.315 E110.0131
G0 F6000 X132.039 Y203.315
G1 F1200 X103.516 Y174.792 E111.35474
G0 F6000 X103.516 Y174.226
G1 F1200 X132.605 Y203.315 E112.723
G0 F6000 X133.17 Y203.315
G1 F1200 X103.516 Y173.661 E114.11783
G0 F6000 X103.516 Y173.095
G1 F1200 X133.736 Y203.315 E115.53929
G0 F6000 X134.302 Y203.315
G1 F1200 X103.516 Y172.529 E116.98736
G0 F6000 X103.516 Y171.964
G1 F1200 X134.867 Y203.315 E118.46202
G0 F6000 X135.433 Y203.315
G1 F1200 X103.516 Y171.398 E119.9633
G0 F6000 X103.516 Y170.832
G1 F1200 X135.999 Y203.315 E121.4912
G0 F6000 X136.564 Y203.315
G1 F1200 X103.516 Y170.267 E123.04567
G0 F6000 X103.516 Y169.701
G1 F1200 X137.13 Y203.315 E124.62677
G0 F6000 X137.696 Y203.315
G1 F1200 X103.516 Y169.135 E126.2345
G0 F6000 X103.516 Y168.57
G1 F1200 X138.262 Y203.315 E127.86882
G0 F6000 X138.827 Y203.315
G1 F1200 X103.516 Y168.004 E129.52974
G0 F6000 X103.516 Y167.438
G1 F1200 X139.393 Y203.315 E131.21728
G0 F6000 X139.959 Y203.315
G1 F1200 X103.516 Y166.872 E132.93145
G0 F6000 X103.516 Y166.307
G1 F1200 X140.524 Y203.315 E134.67219
G0 F6000 X141.09 Y203.315
G1 F1200 X103.516 Y165.741 E136.43956
G0 F6000 X103.516 Y165.175
G1 F1200 X141.656 Y203.315 E138.23355
G0 F6000 X142.221 Y203.315
G1 F1200 X103.516 Y164.61 E140.05411
G0 F6000 X103.516 Y164.044
G1 F1200 X142.787 Y203.315 E141.9013
G0 F6000 X143.353 Y203.315
G1 F1200 X103.516 Y163.478 E143.77511
G0 F6000 X103.516 Y162.913
G1 F1200 X143.918 Y203.315 E145.6755
G0 F6000 X144.484 Y203.315
G1 F1200 X103.516 Y162.347 E147.60251
G0 F6000 X103.516 Y161.781
G1 F1200 X145.05 Y203.315 E149.55614
G0 F6000 X145.615 Y203.315
G1 F1200 X103.516 Y161.216 E151.53635
G0 F6000 X103.516 Y160.65
G1 F1200 X146.181 Y203.315 E153.54318
G0 F6000 X146.747 Y203.315
G1 F1200 X103.516 Y160.084 E155.57663
G0 F6000 X103.516 Y159.519
G1 F1200 X147.312 Y203.315 E157.63666
G0 F6000 X147.878 Y203.315
G1 F1200 X103.516 Y158.953 E159.72331
G0 F6000 X103.516 Y158.387
G1 F1200 X148.444 Y203.315 E161.83659
G0 F6000 X149.01 Y203.315
G1 F1200 X103.516 Y157.821 E163.97649
G0 F6000 X103.516 Y157.256
G1 F1200 X149.575 Y203.315 E166.14296
G0 F6000 X150.141 Y203.315
G1 F1200 X103.516 Y156.69 E168.33606
G0 F6000 X103.516 Y156.124
G1 F1200 X150.707 Y203.315 E170.55578
G0 F6000 X151.272 Y203.315
G1 F1200 X103.516 Y155.559 E172.80207
G0 F6000 X103.516 Y154.993
G1 F1200 X151.838 Y203.315 E175.07499
G0 F6000 X152.404 Y203.315
G1 F1200 X103.516 Y154.427 E177.37453
G0 F6000 X103.516 Y153.862
G1 F1200 X152.969 Y203.315 E179.70065
G0 F6000 X153.535 Y203.315
G1 F1200 X103.516 Y153.296 E182.05339
G0 F6000 X103.516 Y152.73
G1 F1200 X154.101 Y203.315 E184.43275
G0 F6000 X154.666 Y203.315
G1 F1200 X103.516 Y152.165 E186.83869
G0 F6000 X103.516 Y151.599
G1 F1200 X155.232 Y203.315 E189.27126
G0 F6000 X155.798 Y203.315
G1 F1200 X103.516 Y151.033 E191.73044
G0 F6000 X103.516 Y150.468
G1 F1200 X156.363 Y203.315 E194.2162
G0 F6000 X156.929 Y203.315
G1 F1200 X103.516 Y149.902 E196.72858
G0 F6000 X103.516 Y149.336
G1 F1200 X157.495 Y203.315 E199.26759
G0 F6000 X158.06 Y203.315
G1 F1200 X103.516 Y148.771 E201.83317
G0 F6000 X103.516 Y148.205
G1 F1200 X158.626 Y203.315 E204.42538
G0 F6000 X159.192 Y203.315
G1 F1200 X103.516 Y147.639 E207.04421
G0 F6000 X103.516 Y147.073
G1 F1200 X159.758 Y203.315 E209.68966
G0 F6000 X160.323 Y203.315
