;FLAVOR:Marlin
;TIME:12607
;Filament used: 14.2029m
;Layer height: 0.2
;MINX:93.113
;MINY:114.334
;MINZ:0.2
;MAXX:206.887
;MAXY:212.534
;MAXZ:36
;Generated with Cura_SteamEngine 4.12.1
M140 S60
M105
M190 S60
M104 S210
M105
M109 S210
M82 ;absolute extrusion mode
M201 X500.00 Y500.00 Z100.00 E5000.00 ;Setup machine max acceleration
M203 X500.00 Y500.00 Z10.00 E50.00 ;Setup machine max feedrate
M204 P500.00 R1000.00 T500.00 ;Setup Print/Retract/Travel acceleration
M205 X8.00 Y8.00 Z0.40 E5.00 ;Setup Jerk
M220 S100 ;Reset Feedrate
M221 S100 ;Reset Flowrate

G28 ;Home

G92 E0 ;Reset Extruder
G1 Z2.0 F3000 ;Move Z Axis up
G1 X10.1 Y20 Z0.28 F5000.0 ;Move to start position
G1 X10.1 Y200.0 Z0.28 F1500.0 E15 ;Draw the first line
G1 X10.4 Y200.0 Z0.28 F5000.0 ;Move to side a little
G1 X10.4 Y20 Z0.28 F1500.0 E30 ;Draw the second line
G92 E0 ;Reset Extruder
G1 Z2.0 F3000 ;Move Z Axis up

G92 E0
G92 E0
G1 F2700 E-5
;LAYER_COUNT:180
;LAYER:0
M107
G0 F6000 X96.999 Y116.961 Z0.2
;TYPE:SKIRT
G1 F2700 E0
G1 F1200 X97.739 Y116.385 E0.03119
G1 X98.525 Y115.873 E0.06239
G1 X99.352 Y115.431 E0.09358
G1 X100.214 Y115.061 E0.12478
G1 X101.104 Y114.765 E0.15597
G1 X102.016 Y114.547 E0.18716
G1 X102.943 Y114.406 E0.21835
G1 X103.814 Y114.347 E0.24738
G1 X104.135 Y114.338 E0.25806
G1 X104.443 Y114.334 E0.26831
G1 X195.18 Y114.334 E3.28623
G1 X196.036 Y114.345 E3.31471
G1 X196.972 Y114.399 E3.34589
G1 X197.9 Y114.531 E3.37707
G1 X198.814 Y114.743 E3.40827
G1 X199.706 Y115.032 E3.43946
G1 X200.571 Y115.395 E3.47066
G1 X201.401 Y115.831 E3.50184
G1 X202.192 Y116.336 E3.53306
G1 X202.936 Y116.907 E3.56425
G1 X203.629 Y117.539 E3.59544
G1 X204.266 Y118.227 E3.62663
G1 X204.841 Y118.968 E3.65783
G1 X205.352 Y119.754 E3.68901
G1 X205.794 Y120.582 E3.72022
G1 X206.163 Y121.444 E3.75141
G1 X206.458 Y122.334 E3.7826
G1 X206.676 Y123.246 E3.81378
G1 X206.816 Y124.174 E3.845
G1 X206.874 Y125.035 E3.8737
G1 X206.883 Y125.355 E3.88435
G1 X206.887 Y125.664 E3.89463
G1 X206.886 Y200.934 E6.39812
G1 X206.877 Y201.661 E6.4223
G1 X206.826 Y202.598 E6.45351
G1 X206.694 Y203.526 E6.48469
G1 X206.485 Y204.44 E6.51587
G1 X206.198 Y205.333 E6.54707
G1 X205.836 Y206.199 E6.57829
G1 X205.402 Y207.03 E6.60947
G1 X204.898 Y207.821 E6.64066
G1 X204.329 Y208.566 E6.67184
G1 X203.698 Y209.261 E6.70306
G1 X203.011 Y209.899 E6.73425
G1 X202.272 Y210.476 E6.76543
G1 X201.486 Y210.988 E6.79663
G1 X200.66 Y211.431 E6.82781
G1 X199.798 Y211.803 E6.85903
G1 X198.909 Y212.099 E6.8902
G1 X197.997 Y212.319 E6.9214
G1 X197.07 Y212.46 E6.95259
G1 X196.186 Y212.521 E6.98206
G1 X195.865 Y212.53 E6.99274
G1 X195.557 Y212.534 E7.00298
G1 X104.678 Y212.533 E10.02563
G1 X103.98 Y212.524 E10.04885
G1 X103.044 Y212.472 E10.08003
G1 X102.115 Y212.34 E10.11124
G1 X101.201 Y212.13 E10.14243
G1 X100.308 Y211.843 E10.17363
G1 X99.443 Y211.48 E10.20483
G1 X98.612 Y211.046 E10.23601
G1 X97.821 Y210.542 E10.2672
G1 X97.076 Y209.972 E10.2984
G1 X96.382 Y209.341 E10.3296
G1 X95.745 Y208.654 E10.36076
G1 X95.168 Y207.914 E10.39197
G1 X94.656 Y207.128 E10.42317
G1 X94.213 Y206.301 E10.45438
G1 X93.842 Y205.44 E10.48556
G1 X93.546 Y204.55 E10.51675
G1 X93.327 Y203.638 E10.54795
G1 X93.186 Y202.711 E10.57914
G1 X93.126 Y201.822 E10.60877
G1 X93.117 Y201.489 E10.61985
G1 X93.113 Y201.192 E10.62973
G1 X93.114 Y125.859 E13.13532
G1 X93.123 Y125.194 E13.15744
G1 X93.176 Y124.258 E13.18862
G1 X93.308 Y123.329 E13.21983
G1 X93.519 Y122.415 E13.25103
G1 X93.807 Y121.523 E13.2822
G1 X94.17 Y120.658 E13.3134
G1 X94.605 Y119.827 E13.3446
G1 X95.109 Y119.037 E13.37577
G1 X95.679 Y118.292 E13.40697
G1 X96.311 Y117.598 E13.43819
G1 X96.999 Y116.961 E13.46937
G0 F6000 X97.387 Y117.157
G1 F1200 X98.123 Y116.604 E13.49999
G1 X98.904 Y116.116 E13.53062
G1 X99.724 Y115.698 E13.56123
G1 X100.578 Y115.353 E13.59187
G1 X101.458 Y115.083 E13.62248
G1 X102.358 Y114.891 E13.65309
G1 X103.272 Y114.777 E13.68373
G1 X103.825 Y114.747 E13.70215
G1 X104.146 Y114.738 E13.71283
G1 X104.443 Y114.734 E13.72271
G1 X195.18 Y114.734 E16.74063
G1 X196.03 Y114.745 E16.7689
G1 X196.949 Y114.798 E16.79952
G1 X197.86 Y114.931 E16.83014
G1 X198.756 Y115.142 E16.86076
G1 X199.63 Y115.43 E16.89137
G1 X200.477 Y115.793 E16.92201
G1 X201.288 Y116.228 E16.95262
G1 X202.058 Y116.732 E16.98323
G1 X202.782 Y117.301 E17.01386
G1 X203.454 Y117.931 E17.0445
G1 X204.069 Y118.616 E17.07511
G1 X204.622 Y119.352 E17.10573
G1 X205.109 Y120.133 E17.13635
G1 X205.526 Y120.954 E17.16697
G1 X205.871 Y121.808 E17.19761
G1 X206.14 Y122.688 E17.22821
G1 X206.332 Y123.589 E17.25885
G1 X206.445 Y124.502 E17.28945
G1 X206.474 Y125.046 E17.30757
G1 X206.483 Y125.366 E17.31822
G1 X206.487 Y125.664 E17.32813
G1 X206.486 Y200.929 E19.83146
G1 X206.477 Y201.656 E19.85564
G1 X206.426 Y202.575 E19.88625
G1 X206.295 Y203.487 E19.9169
G1 X206.085 Y204.383 E19.9475
G1 X205.799 Y205.258 E19.97812
G1 X205.438 Y206.105 E20.00874
G1 X205.004 Y206.917 E20.03937
G1 X204.502 Y207.689 E20.07
G1 X203.934 Y208.414 E20.10063
G1 X203.306 Y209.087 E20.13124
G1 X202.622 Y209.703 E20.16186
G1 X201.887 Y210.257 E20.19247
G1 X201.107 Y210.746 E20.22309
G1 X200.287 Y211.165 E20.25372
G1 X199.434 Y211.511 E20.28434
G1 X198.554 Y211.782 E20.31496
G1 X197.654 Y211.975 E20.34558
G1 X196.74 Y212.09 E20.37622
G1 X196.175 Y212.121 E20.39504
G1 X195.854 Y212.13 E20.40572
G1 X195.557 Y212.134 E20.4156
G1 X104.683 Y212.133 E23.43808
G1 X103.985 Y212.124 E23.46129
G1 X103.066 Y212.072 E23.49191
G1 X102.155 Y211.941 E23.52252
G1 X101.259 Y211.731 E23.55313
G1 X100.384 Y211.444 E23.58376
G1 X99.537 Y211.082 E23.61439
G1 X98.725 Y210.648 E23.64502
G1 X97.954 Y210.146 E23.67562
G1 X97.229 Y209.578 E23.70625
G1 X96.556 Y208.949 E23.73689
G1 X95.941 Y208.265 E23.76748
G1 X95.387 Y207.53 E23.79809
G1 X94.899 Y206.749 E23.82872
G1 X94.48 Y205.929 E23.85935
G1 X94.134 Y205.076 E23.88997
G1 X93.864 Y204.196 E23.92058
G1 X93.671 Y203.295 E23.95123
G1 X93.557 Y202.382 E23.98183
G1 X93.526 Y201.811 E24.00085
G1 X93.517 Y201.478 E24.01193
G1 X93.513 Y201.192 E24.02145
G1 X93.514 Y125.865 E26.52683
G1 X93.523 Y125.2 E26.54895
G1 X93.575 Y124.28 E26.5796
G1 X93.707 Y123.369 E26.61022
G1 X93.918 Y122.473 E26.64083
G1 X94.205 Y121.598 E26.67146
G1 X94.568 Y120.752 E26.70208
G1 X95.002 Y119.94 E26.7327
G1 X95.505 Y119.169 E26.76332
G1 X96.074 Y118.445 E26.79395
G1 X96.702 Y117.773 E26.82454
G1 X97.387 Y117.157 E26.85518
G0 F6000 X97.775 Y117.358
G1 F1200 X98.507 Y116.828 E26.88524
G1 X99.282 Y116.365 E26.91526
G1 X100.095 Y115.972 E26.9453
G1 X100.94 Y115.652 E26.97535
G1 X101.809 Y115.409 E27.00536
G1 X102.697 Y115.243 E27.03541
G1 X103.836 Y115.147 E27.07343
G1 X104.157 Y115.138 E27.08411
G1 X104.443 Y115.134 E27.09362
G1 X195.18 Y115.134 E30.11155
G1 X196.024 Y115.145 E30.13962
G1 X196.926 Y115.198 E30.16967
G1 X197.819 Y115.33 E30.1997
G1 X198.697 Y115.541 E30.22973
G1 X199.553 Y115.829 E30.25977
G1 X200.38 Y116.191 E30.2898
G1 X201.172 Y116.626 E30.31985
G1 X201.923 Y117.128 E30.34989
G1 X202.626 Y117.695 E30.37993
G1 X203.276 Y118.322 E30.40997
G1 X203.868 Y119.004 E30.44001
G1 X204.398 Y119.735 E30.47004
G1 X204.86 Y120.511 E30.50008
G1 X205.253 Y121.324 E30.53011
G1 X205.571 Y122.169 E30.56014
G1 X205.814 Y123.039 E30.59018
G1 X205.979 Y123.927 E30.62022
G1 X206.074 Y125.057 E30.65794
G1 X206.083 Y125.377 E30.66859
G1 X206.087 Y125.664 E30.67814
G1 X206.086 Y200.924 E33.18129
G1 X206.077 Y201.651 E33.20548
G1 X206.026 Y202.553 E33.23552
G1 X205.895 Y203.447 E33.26558
G1 X205.686 Y204.325 E33.29559
G1 X205.4 Y205.182 E33.32564
G1 X205.039 Y206.01 E33.35569
G1 X204.607 Y206.802 E33.38569
G1 X204.106 Y207.554 E33.41575
G1 X203.54 Y208.258 E33.44579
G1 X202.915 Y208.909 E33.47581
G1 X202.234 Y209.503 E33.50586
G1 X201.503 Y210.034 E33.53591
G1 X200.729 Y210.498 E33.56593
G1 X199.916 Y210.892 E33.59598
G1 X199.072 Y211.212 E33.626
G1 X198.202 Y211.457 E33.65606
G1 X197.315 Y211.623 E33.68607
G1 X196.164 Y211.721 E33.72449
G1 X195.843 Y211.73 E33.73518
G1 X195.557 Y211.734 E33.74469
G1 X104.688 Y211.733 E36.767
G1 X103.99 Y211.724 E36.79022
G1 X103.089 Y211.673 E36.82024
G1 X102.195 Y211.541 E36.85029
G1 X101.317 Y211.332 E36.88031
G1 X100.46 Y211.045 E36.91037
G1 X99.633 Y210.684 E36.94038
G1 X98.84 Y210.251 E36.97044
G1 X98.089 Y209.75 E37.00046
G1 X97.385 Y209.184 E37.03051
G1 X96.734 Y208.558 E37.06054
G1 X96.141 Y207.877 E37.09058
G1 X95.611 Y207.146 E37.12061
G1 X95.147 Y206.371 E37.15065
G1 X94.753 Y205.558 E37.1807
G1 X94.433 Y204.714 E37.21072
G1 X94.189 Y203.844 E37.24078
G1 X94.023 Y202.956 E37.27082
G1 X93.926 Y201.801 E37.30937
G1 X93.917 Y201.468 E37.32045
G1 X93.913 Y201.192 E37.32963
G1 X93.914 Y125.87 E39.83485
G1 X93.923 Y125.205 E39.85697
G1 X93.975 Y124.303 E39.88702
G1 X94.107 Y123.41 E39.91705
G1 X94.317 Y122.532 E39.94707
G1 X94.604 Y121.675 E39.97713
G1 X94.966 Y120.848 E40.00716
G1 X95.399 Y120.056 E40.03718
G1 X95.901 Y119.305 E40.06723
G1 X96.468 Y118.601 E40.09729
G1 X97.094 Y117.951 E40.12731
G1 X97.775 Y117.358 E40.15734
G1 F2700 E35.15734
;MESH:tinker.obj(1)
G0 F6000 X104.923 Y124.669
G0 X104.923 Y126.144
G0 X104.895 Y200.752
G0 X195.287 Y200.934
;TYPE:WALL-INNER
G1 F2700 E40.15734
G1 F1200 X104.713 Y200.934 E43.16984
G1 X104.713 Y125.934 E45.66435
G1 X195.287 Y125.934 E48.67686
G1 X195.287 Y200.934 E51.17137
G0 F6000 X195.687 Y201.334
;TYPE:WALL-OUTER
G1 F1200 X104.313 Y201.334 E54.21048
G1 X104.313 Y125.534 E56.7316
G1 X195.687 Y125.534 E59.77071
G1 X195.687 Y201.334 E62.29183
G0 F6000 X195.417 Y201.064
G0 X195.177 Y200.544
G0 X194.897 Y200.544
;TYPE:SKIN
G1 F1200 X105.103 Y200.544 E65.27839
G1 X105.103 Y126.324 E67.74696
G1 X194.897 Y126.324 E70.73352
G1 X194.897 Y200.544 E73.20208
G1 F2700 E68.20208
G0 F6000 X195.177 Y200.544
G0 X195.177 Y126.854
G1 F2700 E73.20208
G0 F6000 X194.736 Y126.854
G1 F1200 X194.365 Y126.483 E73.21953
G0 F6000 X193.8 Y126.483
G1 F1200 X194.736 Y127.419 E73.26356
G0 F6000 X194.736 Y127.985
G1 F1200 X193.234 Y126.483 E73.33421
G0 F6000 X192.668 Y126.483
G1 F1200 X194.736 Y128.551 E73.43148
G0 F6000 X194.736 Y129.116
G1 F1200 X192.103 Y126.483 E73.55533
G0 F6000 X191.537 Y126.483
G1 F1200 X194.736 Y129.682 E73.7058
G0 F6000 X194.736 Y130.248
G1 F1200 X190.971 Y126.483 E73.8829
G0 F6000 X190.406 Y126.483
G1 F1200 X194.736 Y130.814 E74.08659
G0 F6000 X194.736 Y131.379
G1 F1200 X189.84 Y126.483 E74.31688
G0 F6000 X189.274 Y126.483
G1 F1200 X194.736 Y131.945 E74.5738
G0 F6000 X194.736 Y132.511
G1 F1200 X188.709 Y126.483 E74.85731
G0 F6000 X188.143 Y126.483
G1 F1200 X194.736 Y133.076 E75.16743
G0 F6000 X194.736 Y133.642
G1 F1200 X187.577 Y126.483 E75.50416
G0 F6000 X187.012 Y126.483
G1 F1200 X194.736 Y134.208 E75.8675
G0 F6000 X194.736 Y134.773
G1 F1200 X186.446 Y126.483 E76.25744
G0 F6000 X185.88 Y126.483
G1 F1200 X194.736 Y135.339 E76.674
G0 F6000 X194.736 Y135.905
G1 F1200 X185.315 Y126.483 E77.11716
G0 F6000 X184.749 Y126.483
G1 F1200 X194.736 Y136.47 E77.58691
G0 F6000 X194.736 Y137.036
G1 F1200 X184.183 Y126.483 E78.08329
G0 F6000 X183.617 Y126.483
G1 F1200 X194.736 Y137.602 E78.6063
G0 F6000 X194.736 Y138.167
G1 F1200 X183.052 Y126.483 E79.15588
G0 F6000 X182.486 Y126.483
G1 F1200 X194.736 Y138.733 E79.73208
G0 F6000 X194.736 Y139.299
G1 F1200 X181.92 Y126.483 E80.3349
G0 F6000 X181.355 Y126.483
G1 F1200 X194.736 Y139.865 E80.96433
G0 F6000 X194.736 Y140.43
G1 F1200 X180.789 Y126.483 E81.62035
G0 F6000 X180.223 Y126.483
G1 F1200 X194.736 Y140.996 E82.303
G0 F6000 X194.736 Y141.562
G1 F1200 X179.658 Y126.483 E83.01225
G0 F6000 X179.092 Y126.483
G1 F1200 X194.736 Y142.127 E83.74809
G0 F6000 X194.736 Y142.693
G1 F1200 X178.526 Y126.483 E84.51056
G0 F6000 X177.961 Y126.483
G1 F1200 X194.736 Y143.259 E85.29963
G0 F6000 X194.736 Y143.824
G1 F1200 X177.395 Y126.483 E86.1153
G0 F6000 X176.829 Y126.483
G1 F1200 X194.736 Y144.39 E86.95759
G0 F6000 X194.736 Y144.956
G1 F1200 X176.264 Y126.483 E87.82648
G0 F6000 X175.698 Y126.483
G1 F1200 X194.736 Y145.521 E88.72197
G0 F6000 X194.736 Y146.087
G1 F1200 X175.132 Y126.483 E89.64408
G0 F6000 X174.566 Y126.483
G1 F1200 X194.736 Y146.653 E90.59281
G0 F6000 X194.736 Y147.218
G1 F1200 X174.001 Y126.483 E91.56812
G0 F6000 X173.435 Y126.483
G1 F1200 X194.736 Y147.784 E92.57006
G0 F6000 X194.736 Y148.35
G1 F1200 X172.869 Y126.483 E93.59861
G0 F6000 X172.304 Y126.483
G1 F1200 X194.736 Y148.915 E94.65375
G0 F6000 X194.736 Y149.481
G1 F1200 X171.738 Y126.483 E95.7355
G0 F6000 X171.172 Y126.483
G1 F1200 X194.736 Y150.047 E96.84388
G0 F6000 X194.736 Y150.613
G1 F1200 X170.607 Y126.483 E97.97886
G0 F6000 X170.041 Y126.483
G1 F1200 X194.736 Y151.178 E99.14044
G0 F6000 X194.736 Y151.744
G1 F1200 X169.475 Y126.483 E100.32864
G0 F6000 X168.91 Y126.483
G1 F1200 X194.736 Y152.31 E101.54344
G0 F6000 X194.736 Y152.875
G1 F1200 X168.344 Y126.483 E102.78483
G0 F6000 X167.778 Y126.483
G1 F1200 X194.736 Y153.441 E104.05286
G0 F6000 X194.736 Y154.007
G1 F1200 X167.213 Y126.483 E105.34748
G0 F6000 X166.647 Y126.483
G1 F1200 X194.736 Y154.572 E106.6687
G0 F6000 X194.736 Y155.138
G1 F1200 X166.081 Y126.483 E108.01654
G0 F6000 X165.516 Y126.483
G1 F1200 X194.736 Y155.704 E109.39098
G0 F6000 X194.736 Y156.269
G1 F1200 X164.95 Y126.483 E110.79203
G0 F6000 X164.384 Y126.483
G1 F1200 X194.736 Y156.835 E112.21969
G0 F6000 X194.736 Y157.401
G1 F1200 X163.818 Y126.483 E113.67398
G0 F6000 X163.253 Y126.483
G1 F1200 X194.736 Y157.966 E115.15484
G0 F6000 X194.736 Y158.532
G1 F1200 X162.687 Y126.483 E116.66233
G0 F6000 X162.121 Y126.483
G1 F1200 X194.736 Y159.098 E118.19644
G0 F6000 X194.736 Y159.664
G1 F1200 X161.556 Y126.483 E119.75715
G0 F6000 X160.99 Y126.483
G1 F1200 X194.736 Y160.229 E121.34446
G0 F6000 X194.736 Y160.795
G1 F1200 X160.424 Y126.483 E122.95839
G0 F6000 X159.859 Y126.483
G1 F1200 X194.736 Y161.361 E124.59892
G0 F6000 X194.736 Y161.926
G1 F1200 X159.293 Y126.483 E126.26605
G0 F6000 X158.727 Y126.483
G1 F1200 X194.736 Y162.492 E127.9598
G0 F6000 X194.736 Y163.058
G1 F1200 X158.162 Y126.483 E129.68015
G0 F6000 X157.596 Y126.483
G1 F1200 X194.736 Y163.623 E131.4271
G0 F6000 X194.736 Y164.189
G1 F1200 X157.03 Y126.483 E133.20068
G0 F6000 X156.465 Y126.483
G1 F1200 X194.736 Y164.755 E135.00085
G0 F6000 X194.736 Y165.32
G1 F1200 X155.899 Y126.483 E136.82763
G0 F6000 X155.333 Y126.483
G1 F1200 X194.736 Y165.886 E138.68102
G0 F6000 X194.736 Y166.452
G1 F1200 X154.767 Y126.483 E140.56104
G0 F6000 X154.202 Y126.483
G1 F1200 X194.736 Y167.017 E142.46764
G0 F6000 X194.736 Y167.583
G1 F1200 X153.636 Y126.483 E144.40086
G0 F6000 X153.07 Y126.483
G1 F1200 X194.736 Y168.149 E146.3607
G0 F6000 X194.736 Y168.714
G1 F1200 X152.505 Y126.483 E148.34711
G0 F6000 X151.939 Y126.483
G1 F1200 X194.736 Y169.28 E150.36015
G0 F6000 X194.736 Y169.846
G1 F1200 X151.373 Y126.483 E152.39982
G0 F6000 X150.808 Y126.483
G1 F1200 X194.736 Y170.412 E154.46608
G0 F6000 X194.736 Y170.977
G1 F1200 X150.242 Y126.483 E156.55894
G0 F6000 X149.676 Y126.483
G1 F1200 X194.736 Y171.543 E158.67842
G0 F6000 X194.736 Y172.109
G1 F1200 X149.111 Y126.483 E160.82451
G0 F6000 X148.545 Y126.483
G1 F1200 X194.736 Y172.674 E162.99719
G0 F6000 X194.736 Y173.24
G1 F1200 X147.979 Y126.483 E165.1965
G0 F6000 X147.414 Y126.483
G1 F1200 X194.736 Y173.806 E167.4224
G0 F6000 X194.736 Y174.371
G1 F1200 X146.848 Y126.483 E169.67491
G0 F6000 X146.282 Y126.483
G1 F1200 X194.736 Y174.937 E171.95403
G0 F6000 X194.736 Y175.503
G1 F1200 X145.717 Y126.483 E174.25976
G0 F6000 X145.151 Y126.483
G1 F1200 X194.736 Y176.068 E176.59209
G0 F6000 X194.736 Y176.634
G1 F1200 X144.585 Y126.483 E178.95104
G0 F6000 X144.019 Y126.483
G1 F1200 X194.736 Y177.2 E181.33661
G0 F6000 X194.736 Y177.765
G1 F1200 X143.454 Y126.483 E183.74876
G0 F6000 X142.888 Y126.483
G1 F1200 X194.736 Y178.331 E186.18753
G0 F6000 X194.736 Y178.897
G1 F1200 X142.322 Y126.483 E188.65292
G0 F6000 X141.757 Y126.483
G1 F1200 X194.736 Y179.462 E191.14489
G0 F6000 X194.736 Y180.028
G1 F1200 X141.191 Y126.483 E193.66348
G0 F6000 X140.625 Y126.483
G1 F1200 X194.736 Y180.594 E196.2087
G0 F6000 X194.736 Y181.16
G1 F1200 X140.06 Y126.483 E198.78051
G0 F6000 X139.494 Y126.483
G1 F1200 X194.736 Y181.725 E201.37893
G0 F6000 X194.736 Y182.291
