;FLAVOR:Marlin
;TIME:5924
;Filament used: 8.23021m
;Layer height: 0.2
;MINX:93.113
;MINY:100.9
;MINZ:0.2
;MAXX:206.887
;MAXY:199.1
;MAXZ:7.2
;Generated with Cura_SteamEngine 4.12.1
M140 S60
M105
M190 S60
M104 S210
M105
M109 S210
M82 ;absolute extrusion mode
M201 X500.00 Y500.00 Z100.00 E5000.00 ;Setup machine max acceleration
M203 X500.00 Y500.00 Z10.00 E50.00 ;Setup machine max feedrate
M204 P500.00 R1000.00 T500.00 ;Setup Print/Retract/Travel acceleration
M205 X8.00 Y8.00 Z0.40 E5.00 ;Setup Jerk
M220 S100 ;Reset Feedrate
M221 S100 ;Reset Flowrate

G28 ;Home

G92 E0 ;Reset Extruder
G1 Z2.0 F3000 ;Move Z Axis up
G1 X10.1 Y20 Z0.28 F5000.0 ;Move to start position
G1 X10.1 Y200.0 Z0.28 F1500.0 E15 ;Draw the first line
G1 X10.4 Y200.0 Z0.28 F5000.0 ;Move to side a little
G1 X10.4 Y20 Z0.28 F1500.0 E30 ;Draw the second line
G92 E0 ;Reset Extruder
G1 Z2.0 F3000 ;Move Z Axis up

G92 E0
G92 E0
G1 F2700 E-5
;LAYER_COUNT:36
;LAYER:0
M107
G0 F6000 X96.311 Y104.164 Z0.2
;TYPE:SKIRT
G1 F2700 E0
G1 F1200 X96.999 Y103.527 E0.03119
G1 X97.739 Y102.951 E0.06237
G1 X98.525 Y102.439 E0.09357
G1 X99.352 Y101.997 E0.12476
G1 X100.214 Y101.627 E0.15596
G1 X101.104 Y101.331 E0.18716
G1 X102.016 Y101.113 E0.21835
G1 X102.943 Y100.972 E0.24953
G1 X103.814 Y100.913 E0.27857
G1 X104.135 Y100.904 E0.28925
G1 X104.443 Y100.9 E0.29949
G1 X195.18 Y100.9 E3.31742
G1 X196.036 Y100.911 E3.34589
G1 X196.972 Y100.965 E3.37708
G1 X197.9 Y101.097 E3.40825
G1 X198.814 Y101.309 E3.43946
G1 X199.706 Y101.598 E3.47064
G1 X200.571 Y101.961 E3.50185
G1 X201.401 Y102.397 E3.53303
G1 X202.192 Y102.902 E3.56424
G1 X202.936 Y103.473 E3.59543
G1 X203.629 Y104.105 E3.62663
G1 X204.266 Y104.793 E3.65781
G1 X204.841 Y105.534 E3.68901
G1 X205.352 Y106.32 E3.72019
G1 X205.794 Y107.148 E3.75141
G1 X206.163 Y108.01 E3.7826
G1 X206.458 Y108.9 E3.81378
G1 X206.676 Y109.812 E3.84497
G1 X206.816 Y110.74 E3.87618
G1 X206.874 Y111.601 E3.90489
G1 X206.883 Y111.921 E3.91553
G1 X206.887 Y112.23 E3.92581
G1 X206.886 Y187.5 E6.4293
G1 X206.877 Y188.227 E6.45348
G1 X206.826 Y189.164 E6.48469
G1 X206.694 Y190.092 E6.51587
G1 X206.485 Y191.006 E6.54706
G1 X206.198 Y191.899 E6.57825
G1 X205.836 Y192.765 E6.60947
G1 X205.402 Y193.596 E6.64065
G1 X204.898 Y194.387 E6.67185
G1 X204.329 Y195.132 E6.70303
G1 X203.698 Y195.827 E6.73425
G1 X203.011 Y196.465 E6.76543
G1 X202.272 Y197.042 E6.79662
G1 X201.486 Y197.554 E6.82782
G1 X200.66 Y197.997 E6.85899
G1 X199.798 Y198.369 E6.89022
G1 X198.909 Y198.665 E6.92138
G1 X197.997 Y198.885 E6.95258
G1 X197.07 Y199.026 E6.98377
G1 X196.186 Y199.087 E7.01324
G1 X195.865 Y199.096 E7.02392
G1 X195.557 Y199.1 E7.03417
G1 X104.678 Y199.099 E10.05682
G1 X103.98 Y199.09 E10.08003
G1 X103.044 Y199.038 E10.11121
G1 X102.115 Y198.906 E10.14242
G1 X101.201 Y198.696 E10.17361
G1 X100.308 Y198.409 E10.20481
G1 X99.443 Y198.046 E10.23601
G1 X98.612 Y197.612 E10.26719
G1 X97.821 Y197.108 E10.29839
G1 X97.076 Y196.538 E10.32959
G1 X96.382 Y195.907 E10.36079
G1 X95.745 Y195.22 E10.39195
G1 X95.168 Y194.48 E10.42316
G1 X94.656 Y193.694 E10.45436
G1 X94.213 Y192.867 E10.48556
G1 X93.842 Y192.006 E10.51674
G1 X93.546 Y191.116 E10.54794
G1 X93.327 Y190.204 E10.57913
G1 X93.186 Y189.277 E10.61032
G1 X93.126 Y188.388 E10.63996
G1 X93.117 Y188.055 E10.65104
G1 X93.113 Y187.758 E10.66092
G1 X93.114 Y112.425 E13.1665
G1 X93.123 Y111.76 E13.18862
G1 X93.176 Y110.824 E13.2198
G1 X93.308 Y109.895 E13.25101
G1 X93.519 Y108.981 E13.28221
G1 X93.807 Y108.089 E13.31339
G1 X94.17 Y107.224 E13.34459
G1 X94.605 Y106.393 E13.37578
G1 X95.109 Y105.603 E13.40695
G1 X95.679 Y104.858 E13.43815
G1 X96.311 Y104.164 E13.46937
G0 F6000 X96.702 Y104.339
G1 F1200 X97.387 Y103.723 E13.50001
G1 X98.123 Y103.17 E13.53063
G1 X98.904 Y102.682 E13.56126
G1 X99.724 Y102.264 E13.59187
G1 X100.578 Y101.919 E13.62251
G1 X101.458 Y101.649 E13.65312
G1 X102.358 Y101.457 E13.68373
G1 X103.272 Y101.343 E13.71437
G1 X103.825 Y101.313 E13.73279
G1 X104.146 Y101.304 E13.74347
G1 X104.443 Y101.3 E13.75335
G1 X195.18 Y101.3 E16.77127
G1 X196.03 Y101.311 E16.79954
G1 X196.949 Y101.364 E16.83016
G1 X197.86 Y101.497 E16.86078
G1 X198.756 Y101.708 E16.8914
G1 X199.63 Y101.996 E16.92201
G1 X200.477 Y102.359 E16.95266
G1 X201.288 Y102.794 E16.98326
G1 X202.058 Y103.298 E17.01387
G1 X202.782 Y103.867 E17.0445
G1 X203.454 Y104.497 E17.07514
G1 X204.069 Y105.182 E17.10576
G1 X204.622 Y105.918 E17.13637
G1 X205.109 Y106.699 E17.16699
G1 X205.526 Y107.52 E17.19761
G1 X205.871 Y108.374 E17.22825
G1 X206.14 Y109.254 E17.25885
G1 X206.332 Y110.155 E17.28949
G1 X206.445 Y111.068 E17.32009
G1 X206.474 Y111.612 E17.33821
G1 X206.483 Y111.932 E17.34886
G1 X206.487 Y112.23 E17.35877
G1 X206.486 Y187.495 E19.8621
G1 X206.477 Y188.222 E19.88628
G1 X206.426 Y189.141 E19.91689
G1 X206.295 Y190.053 E19.94754
G1 X206.085 Y190.949 E19.97814
G1 X205.799 Y191.824 E20.00876
G1 X205.438 Y192.671 E20.03939
G1 X205.004 Y193.483 E20.07001
G1 X204.502 Y194.255 E20.10064
G1 X203.934 Y194.98 E20.13127
G1 X203.306 Y195.653 E20.16188
G1 X202.622 Y196.269 E20.1925
G1 X201.887 Y196.823 E20.22311
G1 X201.107 Y197.312 E20.25373
G1 X200.287 Y197.731 E20.28436
G1 X199.434 Y198.077 E20.31498
G1 X198.554 Y198.348 E20.3456
G1 X197.654 Y198.541 E20.37622
G1 X196.74 Y198.656 E20.40686
G1 X196.175 Y198.687 E20.42568
G1 X195.854 Y198.696 E20.43636
G1 X195.557 Y198.7 E20.44624
G1 X104.683 Y198.699 E23.46872
G1 X103.985 Y198.69 E23.49194
G1 X103.066 Y198.638 E23.52255
G1 X102.155 Y198.507 E23.55316
G1 X101.259 Y198.297 E23.58377
G1 X100.384 Y198.01 E23.6144
G1 X99.537 Y197.648 E23.64503
G1 X98.725 Y197.214 E23.67566
G1 X97.954 Y196.712 E23.70626
G1 X97.229 Y196.144 E23.73689
G1 X96.556 Y195.515 E23.76753
G1 X95.941 Y194.831 E23.79812
G1 X95.387 Y194.096 E23.82874
G1 X94.899 Y193.315 E23.85937
G1 X94.48 Y192.495 E23.88999
G1 X94.134 Y191.642 E23.92061
G1 X93.864 Y190.762 E23.95122
G1 X93.671 Y189.861 E23.98187
G1 X93.557 Y188.948 E24.01247
G1 X93.526 Y188.377 E24.03149
G1 X93.517 Y188.044 E24.04257
G1 X93.513 Y187.758 E24.05209
G1 X93.514 Y112.431 E26.55747
G1 X93.523 Y111.766 E26.57959
G1 X93.575 Y110.846 E26.61024
G1 X93.707 Y109.935 E26.64086
G1 X93.918 Y109.039 E26.67147
G1 X94.205 Y108.164 E26.7021
G1 X94.568 Y107.318 E26.73272
G1 X95.002 Y106.506 E26.76334
G1 X95.505 Y105.735 E26.79396
G1 X96.074 Y105.011 E26.82459
G1 X96.702 Y104.339 E26.85518
G0 F6000 X97.094 Y104.517
G1 F1200 X97.775 Y103.924 E26.88521
G1 X98.507 Y103.394 E26.91527
G1 X99.282 Y102.931 E26.9453
G1 X100.095 Y102.538 E26.97533
G1 X100.94 Y102.218 E27.00539
G1 X101.809 Y101.975 E27.0354
G1 X102.697 Y101.809 E27.06544
G1 X103.836 Y101.713 E27.10346
G1 X104.157 Y101.704 E27.11414
G1 X104.443 Y101.7 E27.12366
G1 X195.18 Y101.7 E30.14158
G1 X196.024 Y101.711 E30.16965
G1 X196.926 Y101.764 E30.19971
G1 X197.819 Y101.896 E30.22973
G1 X198.697 Y102.107 E30.25976
G1 X199.553 Y102.395 E30.2898
G1 X200.38 Y102.757 E30.31983
G1 X201.172 Y103.192 E30.34988
G1 X201.923 Y103.694 E30.37993
G1 X202.626 Y104.261 E30.40997
G1 X203.276 Y104.888 E30.44001
G1 X203.868 Y105.57 E30.47004
G1 X204.398 Y106.301 E30.50007
G1 X204.86 Y107.077 E30.53011
G1 X205.253 Y107.89 E30.56015
G1 X205.571 Y108.735 E30.59017
G1 X205.814 Y109.605 E30.62022
G1 X205.979 Y110.493 E30.65026
G1 X206.074 Y111.623 E30.68798
G1 X206.083 Y111.943 E30.69862
G1 X206.087 Y112.23 E30.70817
G1 X206.086 Y187.49 E33.21133
G1 X206.077 Y188.217 E33.23551
G1 X206.026 Y189.119 E33.26556
G1 X205.895 Y190.013 E33.29561
G1 X205.686 Y190.891 E33.32563
G1 X205.4 Y191.748 E33.35568
G1 X205.039 Y192.576 E33.38572
G1 X204.607 Y193.368 E33.41573
G1 X204.106 Y194.12 E33.44578
G1 X203.54 Y194.824 E33.47582
G1 X202.915 Y195.475 E33.50584
G1 X202.234 Y196.069 E33.5359
G1 X201.503 Y196.6 E33.56595
G1 X200.729 Y197.064 E33.59596
G1 X199.916 Y197.458 E33.62601
G1 X199.072 Y197.778 E33.65603
G1 X198.202 Y198.023 E33.68609
G1 X197.315 Y198.189 E33.71611
G1 X196.164 Y198.287 E33.75453
G1 X195.843 Y198.296 E33.76521
G1 X195.557 Y198.3 E33.77472
G1 X104.688 Y198.299 E36.79704
G1 X103.99 Y198.29 E36.82026
G1 X103.089 Y198.239 E36.85027
G1 X102.195 Y198.107 E36.88033
G1 X101.317 Y197.898 E36.91035
G1 X100.46 Y197.611 E36.94041
G1 X99.633 Y197.25 E36.97042
G1 X98.84 Y196.817 E37.00047
G1 X98.089 Y196.316 E37.0305
G1 X97.385 Y195.75 E37.06054
G1 X96.734 Y195.124 E37.09058
G1 X96.141 Y194.443 E37.12061
G1 X95.611 Y193.712 E37.15064
G1 X95.147 Y192.937 E37.18069
G1 X94.753 Y192.124 E37.21074
G1 X94.433 Y191.28 E37.24076
G1 X94.189 Y190.41 E37.27081
G1 X94.023 Y189.522 E37.30086
G1 X93.926 Y188.367 E37.33941
G1 X93.917 Y188.034 E37.35049
G1 X93.913 Y187.758 E37.35967
G1 X93.914 Y112.436 E39.86489
G1 X93.923 Y111.771 E39.88701
G1 X93.975 Y110.869 E39.91706
G1 X94.107 Y109.976 E39.94708
G1 X94.317 Y109.098 E39.97711
G1 X94.604 Y108.241 E40.00717
G1 X94.966 Y107.414 E40.03719
G1 X95.399 Y106.622 E40.06722
G1 X95.901 Y105.871 E40.09726
G1 X96.468 Y105.167 E40.12733
G1 X97.094 Y104.517 E40.15734
G1 F2700 E35.15734
;MESH:tinker.obj
G0 F6000 X104.923 Y111.235
G0 X104.923 Y112.71
G0 X104.895 Y187.318
G0 X195.287 Y187.5
;TYPE:WALL-INNER
G1 F2700 E40.15734
G1 F1200 X104.713 Y187.5 E43.16984
G1 X104.713 Y112.5 E45.66435
G1 X195.287 Y112.5 E48.67686
G1 X195.287 Y187.5 E51.17137
G0 F6000 X195.687 Y187.9
;TYPE:WALL-OUTER
G1 F1200 X104.313 Y187.9 E54.21048
G1 X104.313 Y112.1 E56.7316
G1 X195.687 Y112.1 E59.77071
G1 X195.687 Y187.9 E62.29183
G0 F6000 X195.417 Y187.63
G0 X195.177 Y187.11
G0 X194.897 Y187.11
;TYPE:SKIN
G1 F1200 X105.103 Y187.11 E65.27839
G1 X105.103 Y112.89 E67.74696
G1 X194.897 Y112.89 E70.73352
G1 X194.897 Y187.11 E73.20208
G1 F2700 E68.20208
G0 F6000 X195.177 Y187.11
G0 X195.177 Y113.277
G1 F2700 E73.20208
G0 F6000 X194.736 Y113.277
G1 F1200 X194.508 Y113.05 E73.21278
G0 F6000 X193.943 Y113.05
G1 F1200 X194.736 Y113.843 E73.25008
G0 F6000 X194.736 Y114.409
G1 F1200 X193.377 Y113.05 E73.31401
G0 F6000 X192.811 Y113.05
G1 F1200 X194.736 Y114.974 E73.40453
G0 F6000 X194.736 Y115.54
G1 F1200 X192.246 Y113.05 E73.52165
G0 F6000 X191.68 Y113.05
G1 F1200 X194.736 Y116.106 E73.6654
G0 F6000 X194.736 Y116.671
G1 F1200 X191.114 Y113.05 E73.83574
G0 F6000 X190.549 Y113.05
G1 F1200 X194.736 Y117.237 E74.03268
G0 F6000 X194.736 Y117.803
G1 F1200 X189.983 Y113.05 E74.25625
G0 F6000 X189.417 Y113.05
G1 F1200 X194.736 Y118.368 E74.50642
G0 F6000 X194.736 Y118.934
G1 F1200 X188.851 Y113.05 E74.78321
G0 F6000 X188.286 Y113.05
G1 F1200 X194.736 Y119.5 E75.08659
G0 F6000 X194.736 Y120.066
G1 F1200 X187.72 Y113.05 E75.41661
G0 F6000 X187.154 Y113.05
G1 F1200 X194.736 Y120.631 E75.77322
G0 F6000 X194.736 Y121.197
G1 F1200 X186.589 Y113.05 E76.15643
G0 F6000 X186.023 Y113.05
G1 F1200 X194.736 Y121.763 E76.56626
G0 F6000 X194.736 Y122.328
G1 F1200 X185.457 Y113.05 E77.00269
G0 F6000 X184.892 Y113.05
G1 F1200 X194.736 Y122.894 E77.46572
G0 F6000 X194.736 Y123.46
G1 F1200 X184.326 Y113.05 E77.95538
G0 F6000 X183.76 Y113.05
G1 F1200 X194.736 Y124.025 E78.47163
G0 F6000 X194.736 Y124.591
G1 F1200 X183.195 Y113.05 E79.01448
G0 F6000 X182.629 Y113.05
G1 F1200 X194.736 Y125.157 E79.58396
G0 F6000 X194.736 Y125.722
G1 F1200 X182.063 Y113.05 E80.18004
G0 F6000 X181.498 Y113.05
G1 F1200 X194.736 Y126.288 E80.80271
G0 F6000 X194.736 Y126.854
G1 F1200 X180.932 Y113.05 E81.45201
G0 F6000 X180.366 Y113.05
G1 F1200 X194.736 Y127.419 E82.12791
G0 F6000 X194.736 Y127.985
G1 F1200 X179.8 Y113.05 E82.83043
G0 F6000 X179.235 Y113.05
G1 F1200 X194.736 Y128.551 E83.55955
G0 F6000 X194.736 Y129.116
G1 F1200 X178.669 Y113.05 E84.31526
G0 F6000 X178.103 Y113.05
G1 F1200 X194.736 Y129.682 E85.09761
G0 F6000 X194.736 Y130.248
G1 F1200 X177.538 Y113.05 E85.90655
G0 F6000 X176.972 Y113.05
G1 F1200 X194.736 Y130.814 E86.74211
G0 F6000 X194.736 Y131.379
G1 F1200 X176.406 Y113.05 E87.60427
G0 F6000 X175.841 Y113.05
G1 F1200 X194.736 Y131.945 E88.49304
G0 F6000 X194.736 Y132.511
G1 F1200 X175.275 Y113.05 E89.40842
G0 F6000 X174.709 Y113.05
G1 F1200 X194.736 Y133.076 E90.35041
G0 F6000 X194.736 Y133.642
G1 F1200 X174.144 Y113.05 E91.31899
G0 F6000 X173.578 Y113.05
G1 F1200 X194.736 Y134.208 E92.3142
G0 F6000 X194.736 Y134.773
G1 F1200 X173.012 Y113.05 E93.33601
G0 F6000 X172.447 Y113.05
G1 F1200 X194.736 Y135.339 E94.38441
G0 F6000 X194.736 Y135.905
G1 F1200 X171.881 Y113.05 E95.45944
G0 F6000 X171.315 Y113.05
G1 F1200 X194.736 Y136.47 E96.56107
G0 F6000 X194.736 Y137.036
G1 F1200 X170.75 Y113.05 E97.6893
G0 F6000 X170.184 Y113.05
G1 F1200 X194.736 Y137.602 E98.84415
G0 F6000 X194.736 Y138.167
G1 F1200 X169.618 Y113.05 E100.0256
G0 F6000 X169.052 Y113.05
G1 F1200 X194.736 Y138.733 E101.23367
G0 F6000 X194.736 Y139.299
G1 F1200 X168.487 Y113.05 E102.46835
G0 F6000 X167.921 Y113.05
G1 F1200 X194.736 Y139.865 E103.72964
G0 F6000 X194.736 Y140.43
G1 F1200 X167.355 Y113.05 E105.01754
G0 F6000 X166.79 Y113.05
G1 F1200 X194.736 Y140.996 E106.33203
G0 F6000 X194.736 Y141.562
G1 F1200 X166.224 Y113.05 E107.67315
G0 F6000 X165.658 Y113.05
G1 F1200 X194.736 Y142.127 E109.04086
G0 F6000 X194.736 Y142.693
G1 F1200 X165.093 Y113.05 E110.43518
G0 F6000 X164.527 Y113.05
G1 F1200 X194.736 Y143.259 E111.85612
G0 F6000 X194.736 Y143.824
G1 F1200 X163.961 Y113.05 E113.30366
G0 F6000 X163.396 Y113.05
G1 F1200 X194.736 Y144.39 E114.77779
G0 F6000 X194.736 Y144.956
G1 F1200 X162.83 Y113.05 E116.27855
G0 F6000 X162.264 Y113.05
G1 F1200 X194.736 Y145.521 E117.80591
G0 F6000 X194.736 Y146.087
G1 F1200 X161.699 Y113.05 E119.35987
G0 F6000 X161.133 Y113.05
G1 F1200 X194.736 Y146.653 E120.94046
G0 F6000 X194.736 Y147.218
G1 F1200 X160.567 Y113.05 E122.54764
G0 F6000 X160.002 Y113.05
G1 F1200 X194.736 Y147.784 E124.18142
G0 F6000 X194.736 Y148.35
G1 F1200 X159.436 Y113.05 E125.84182
G0 F6000 X158.87 Y113.05
G1 F1200 X194.736 Y148.915 E127.52882
G0 F6000 X194.736 Y149.481
G1 F1200 X158.304 Y113.05 E129.24245
G0 F6000 X157.739 Y113.05
G1 F1200 X194.736 Y150.047 E130.98268
G0 F6000 X194.736 Y150.613
G1 F1200 X157.173 Y113.05 E132.74952
G0 F6000 X156.607 Y113.05
G1 F1200 X194.736 Y151.178 E134.54297
G0 F6000 X194.736 Y151.744
G1 F1200 X156.042 Y113.05 E136.36302
G0 F6000 X155.476 Y113.05
G1 F1200 X194.736 Y152.31 E138.20969
G0 F6000 X194.736 Y152.875
G1 F1200 X154.91 Y113.05 E140.08296
G0 F6000 X154.345 Y113.05
G1 F1200 X194.736 Y153.441 E141.98283
G0 F6000 X194.736 Y154.007
G1 F1200 X153.779 Y113.05 E143.90932
G0 F6000 X153.213 Y113.05
G1 F1200 X194.736 Y154.572 E145.86241
G0 F6000 X194.736 Y155.138
G1 F1200 X152.648 Y113.05 E147.8421
G0 F6000 X152.082 Y113.05
G1 F1200 X194.736 Y155.704 E149.84841
G0 F6000 X194.736 Y156.269
G1 F1200 X151.516 Y113.05 E151.88133
G0 F6000 X150.951 Y113.05
G1 F1200 X194.736 Y156.835 E153.94084
G0 F6000 X194.736 Y157.401
G1 F1200 X150.385 Y113.05 E156.02697
G0 F6000 X149.819 Y113.05
G1 F1200 X194.736 Y157.966 E158.13971
G0 F6000 X194.736 Y158.532
G1 F1200 X149.253 Y113.05 E160.27907
G0 F6000 X148.688 Y113.05
G1 F1200 X194.736 Y159.098 E162.44502
G0 F6000 X194.736 Y159.664
G1 F1200 X148.122 Y113.05 E164.6376
G0 F6000 X147.556 Y113.05
G1 F1200 X194.736 Y160.229 E166.85678
G0 F6000 X194.736 Y160.795
G1 F1200 X146.991 Y113.05 E169.10256
G0 F6000 X146.425 Y113.05
G1 F1200 X194.736 Y161.361 E171.37496
G0 F6000 X194.736 Y161.926
G1 F1200 X145.859 Y113.05 E173.67396
G0 F6000 X145.294 Y113.05
G1 F1200 X194.736 Y162.492 E175.99956
G0 F6000 X194.736 Y163.058
G1 F1200 X144.728 Y113.05 E178.35179
G0 F6000 X144.162 Y113.05
G1 F1200 X194.736 Y163.623 E180.73061
G0 F6000 X194.736 Y164.189
G1 F1200 X143.597 Y113.05 E183.13603
G0 F6000 X143.031 Y113.05
G1 F1200 X194.736 Y164.755 E185.56807
G0 F6000 X194.736 Y165.32
G1 F1200 X142.465 Y113.05 E188.02672
G0 F6000 X141.9 Y113.05
G1 F1200 X194.736 Y165.886 E190.51196
G0 F6000 X194.736 Y166.452
G1 F1200 X141.334 Y113.05 E193.02383
G0 F6000 X140.768 Y113.05
G1 F1200 X194.736 Y167.017 E195.56229
G0 F6000 X194.736 Y167.583
G1 F1200 X140.203 Y113.05 E198.12736
G0 F6000 X139.637 Y113.05
G1 F1200 X194.736 Y168.149 E200.71905
G0 F6000 X194.736 Y168.714
G1 F1200 X139.071 Y113.05 E203.33733
G0 F6000 X138.505 Y113.05
G1 F1200 X194.736 Y169.28 E205.98224
G0 F6000 X194.736 Y169.846
