;FLAVOR:Marlin
;TIME:15498
;Filament used: 17.1131m
;Layer height: 0.2
;MINX:96.671
;MINY:100.9
;MINZ:0.2
;MAXX:203.329
;MAXY:199.1
;MAXZ:50.8
;Generated with Cura_SteamEngine 4.12.1
M140 S60
M105
M190 S60
M104 S210
M105
M109 S210
M82 ;absolute extrusion mode
M201 X500.00 Y500.00 Z100.00 E5000.00 ;Setup machine max acceleration
M203 X500.00 Y500.00 Z10.00 E50.00 ;Setup machine max feedrate
M204 P500.00 R1000.00 T500.00 ;Setup Print/Retract/Travel acceleration
M205 X8.00 Y8.00 Z0.40 E5.00 ;Setup Jerk
M220 S100 ;Reset Feedrate
M221 S100 ;Reset Flowrate

G28 ;Home

G92 E0 ;Reset Extruder
G1 Z2.0 F3000 ;Move Z Axis up
G1 X10.1 Y20 Z0.28 F5000.0 ;Move to start position
G1 X10.1 Y200.0 Z0.28 F1500.0 E15 ;Draw the first line
G1 X10.4 Y200.0 Z0.28 F5000.0 ;Move to side a little
G1 X10.4 Y20 Z0.28 F1500.0 E30 ;Draw the second line
G92 E0 ;Reset Extruder
G1 Z2.0 F3000 ;Move Z Axis up

G92 E0
G92 E0
G1 F2700 E-5
;LAYER_COUNT:254
;LAYER:0
M107
G0 F6000 X99.869 Y104.164 Z0.2
;TYPE:SKIRT
G1 F2700 E0
G1 F1200 X100.557 Y103.527 E0.03119
G1 X101.297 Y102.951 E0.06237
G1 X102.083 Y102.439 E0.09357
G1 X102.91 Y101.997 E0.12476
G1 X103.772 Y101.627 E0.15596
G1 X104.662 Y101.331 E0.18716
G1 X105.574 Y101.113 E0.21835
G1 X106.501 Y100.972 E0.24953
G1 X107.372 Y100.913 E0.27857
G1 X107.693 Y100.904 E0.28925
G1 X108.001 Y100.9 E0.29949
G1 X191.622 Y100.9 E3.08074
G1 X192.478 Y100.911 E3.10921
G1 X193.414 Y100.965 E3.1404
G1 X194.342 Y101.097 E3.17157
G1 X195.256 Y101.309 E3.20278
G1 X196.148 Y101.598 E3.23397
G1 X197.013 Y101.961 E3.26517
G1 X197.843 Y102.397 E3.29635
G1 X198.634 Y102.902 E3.32756
G1 X199.378 Y103.473 E3.35876
G1 X200.071 Y104.105 E3.38995
G1 X200.708 Y104.793 E3.42114
G1 X201.283 Y105.534 E3.45233
G1 X201.794 Y106.32 E3.48351
G1 X202.236 Y107.148 E3.51473
G1 X202.605 Y108.01 E3.54592
G1 X202.9 Y108.9 E3.5771
G1 X203.118 Y109.812 E3.60829
G1 X203.258 Y110.74 E3.6395
G1 X203.316 Y111.601 E3.66821
G1 X203.325 Y111.921 E3.67885
G1 X203.329 Y112.23 E3.68913
G1 X203.328 Y187.5 E6.19262
G1 X203.319 Y188.227 E6.2168
G1 X203.268 Y189.164 E6.24802
G1 X203.136 Y190.092 E6.27919
G1 X202.927 Y191.006 E6.31038
G1 X202.64 Y191.899 E6.34157
G1 X202.278 Y192.765 E6.37279
G1 X201.844 Y193.596 E6.40397
G1 X201.34 Y194.387 E6.43517
G1 X200.771 Y195.132 E6.46635
G1 X200.14 Y195.827 E6.49757
G1 X199.453 Y196.465 E6.52875
G1 X198.714 Y197.042 E6.55994
G1 X197.928 Y197.554 E6.59114
G1 X197.102 Y197.997 E6.62231
G1 X196.24 Y198.369 E6.65354
G1 X195.351 Y198.665 E6.6847
G1 X194.439 Y198.885 E6.71591
G1 X193.512 Y199.026 E6.74709
G1 X192.628 Y199.087 E6.77656
G1 X192.307 Y199.096 E6.78724
G1 X191.999 Y199.1 E6.79749
G1 X108.236 Y199.099 E9.58346
G1 X107.538 Y199.09 E9.60668
G1 X106.602 Y199.038 E9.63786
G1 X105.673 Y198.906 E9.66906
G1 X104.759 Y198.696 E9.70026
G1 X103.866 Y198.409 E9.73145
G1 X103.001 Y198.046 E9.76265
G1 X102.17 Y197.612 E9.79384
G1 X101.379 Y197.108 E9.82503
G1 X100.634 Y196.538 E9.85623
G1 X99.94 Y195.907 E9.88743
G1 X99.303 Y195.22 E9.91859
G1 X98.726 Y194.48 E9.9498
G1 X98.214 Y193.694 E9.981
G1 X97.771 Y192.867 E10.0122
G1 X97.4 Y192.006 E10.04338
G1 X97.104 Y191.116 E10.07458
G1 X96.885 Y190.204 E10.10578
G1 X96.744 Y189.277 E10.13696
G1 X96.684 Y188.388 E10.1666
G1 X96.675 Y188.055 E10.17768
G1 X96.671 Y187.758 E10.18756
G1 X96.672 Y112.425 E12.69314
G1 X96.681 Y111.76 E12.71526
G1 X96.734 Y110.824 E12.74644
G1 X96.866 Y109.895 E12.77765
G1 X97.077 Y108.981 E12.80885
G1 X97.365 Y108.089 E12.84003
G1 X97.728 Y107.224 E12.87123
G1 X98.163 Y106.393 E12.90243
G1 X98.667 Y105.603 E12.93359
G1 X99.237 Y104.858 E12.96479
G1 X99.869 Y104.164 E12.99601
G0 F6000 X100.26 Y104.339
G1 F1200 X100.945 Y103.723 E13.02665
G1 X101.681 Y103.17 E13.05727
G1 X102.462 Y102.682 E13.0879
G1 X103.282 Y102.264 E13.11852
G1 X104.136 Y101.919 E13.14915
G1 X105.016 Y101.649 E13.17977
G1 X105.916 Y101.457 E13.21037
G1 X106.83 Y101.343 E13.24101
G1 X107.383 Y101.313 E13.25943
G1 X107.704 Y101.304 E13.27011
G1 X108.001 Y101.3 E13.27999
G1 X191.622 Y101.3 E16.06123
G1 X192.472 Y101.311 E16.08951
G1 X193.391 Y101.364 E16.12012
G1 X194.302 Y101.497 E16.15075
G1 X195.198 Y101.708 E16.18136
G1 X196.072 Y101.996 E16.21197
G1 X196.919 Y102.359 E16.24262
G1 X197.73 Y102.794 E16.27323
G1 X198.5 Y103.298 E16.30384
G1 X199.224 Y103.867 E16.33446
G1 X199.896 Y104.497 E16.3651
G1 X200.511 Y105.182 E16.39572
G1 X201.064 Y105.918 E16.42634
G1 X201.551 Y106.699 E16.45695
G1 X201.968 Y107.52 E16.48758
G1 X202.313 Y108.374 E16.51821
G1 X202.582 Y109.254 E16.54882
G1 X202.774 Y110.155 E16.57946
G1 X202.887 Y111.068 E16.61006
G1 X202.916 Y111.612 E16.62817
G1 X202.925 Y111.932 E16.63882
G1 X202.929 Y112.23 E16.64873
G1 X202.928 Y187.495 E19.15206
G1 X202.919 Y188.222 E19.17624
G1 X202.868 Y189.141 E19.20685
G1 X202.737 Y190.053 E19.2375
G1 X202.527 Y190.949 E19.26811
G1 X202.241 Y191.824 E19.29872
G1 X201.88 Y192.671 E19.32935
G1 X201.446 Y193.483 E19.35997
G1 X200.944 Y194.255 E19.3906
G1 X200.376 Y194.98 E19.42123
G1 X199.748 Y195.653 E19.45185
G1 X199.064 Y196.269 E19.48246
G1 X198.329 Y196.823 E19.51308
G1 X197.549 Y197.312 E19.5437
G1 X196.729 Y197.731 E19.57432
G1 X195.876 Y198.077 E19.60494
G1 X194.996 Y198.348 E19.63556
G1 X194.096 Y198.541 E19.66618
G1 X193.182 Y198.656 E19.69682
G1 X192.617 Y198.687 E19.71564
G1 X192.296 Y198.696 E19.72632
G1 X191.999 Y198.7 E19.7362
G1 X108.241 Y198.699 E22.522
G1 X107.543 Y198.69 E22.54522
G1 X106.624 Y198.638 E22.57583
G1 X105.713 Y198.507 E22.60645
G1 X104.817 Y198.297 E22.63705
G1 X103.942 Y198.01 E22.66768
G1 X103.095 Y197.648 E22.69832
G1 X102.283 Y197.214 E22.72894
G1 X101.512 Y196.712 E22.75954
G1 X100.787 Y196.144 E22.79017
G1 X100.114 Y195.515 E22.82081
G1 X99.499 Y194.831 E22.85141
G1 X98.945 Y194.096 E22.88202
G1 X98.457 Y193.315 E22.91265
G1 X98.038 Y192.495 E22.94328
G1 X97.692 Y191.642 E22.97389
G1 X97.422 Y190.762 E23.00451
G1 X97.229 Y189.861 E23.03516
G1 X97.115 Y188.948 E23.06576
G1 X97.084 Y188.377 E23.08478
G1 X97.075 Y188.044 E23.09586
G1 X97.071 Y187.758 E23.10537
G1 X97.072 Y112.431 E25.61076
G1 X97.081 Y111.766 E25.63288
G1 X97.133 Y110.846 E25.66352
G1 X97.265 Y109.935 E25.69414
G1 X97.476 Y109.039 E25.72476
G1 X97.763 Y108.164 E25.75539
G1 X98.126 Y107.318 E25.786
G1 X98.56 Y106.506 E25.81663
G1 X99.063 Y105.735 E25.84725
G1 X99.632 Y105.011 E25.87787
G1 X100.26 Y104.339 E25.90846
G0 F6000 X100.652 Y104.517
G1 F1200 X101.333 Y103.924 E25.9385
G1 X102.065 Y103.394 E25.96856
G1 X102.84 Y102.931 E25.99858
G1 X103.653 Y102.538 E26.02862
G1 X104.498 Y102.218 E26.05867
G1 X105.367 Y101.975 E26.08868
G1 X106.255 Y101.809 E26.11873
G1 X107.394 Y101.713 E26.15674
G1 X107.715 Y101.704 E26.16743
G1 X108.001 Y101.7 E26.17694
G1 X191.622 Y101.7 E28.95818
G1 X192.466 Y101.711 E28.98626
G1 X193.368 Y101.764 E29.01631
G1 X194.261 Y101.896 E29.04634
G1 X195.139 Y102.107 E29.07637
G1 X195.995 Y102.395 E29.10641
G1 X196.822 Y102.757 E29.13643
G1 X197.614 Y103.192 E29.16649
G1 X198.365 Y103.694 E29.19653
G1 X199.068 Y104.261 E29.22657
G1 X199.718 Y104.888 E29.25661
G1 X200.31 Y105.57 E29.28665
G1 X200.84 Y106.301 E29.31668
G1 X201.302 Y107.077 E29.34672
G1 X201.695 Y107.89 E29.37675
G1 X202.013 Y108.735 E29.40678
G1 X202.256 Y109.605 E29.43682
G1 X202.421 Y110.493 E29.46686
G1 X202.516 Y111.623 E29.50458
G1 X202.525 Y111.943 E29.51523
G1 X202.529 Y112.23 E29.52477
G1 X202.528 Y187.49 E32.02793
G1 X202.519 Y188.217 E32.05211
G1 X202.468 Y189.119 E32.08216
G1 X202.337 Y190.013 E32.11221
G1 X202.128 Y190.891 E32.14223
G1 X201.842 Y191.748 E32.17228
G1 X201.481 Y192.576 E32.20232
G1 X201.049 Y193.368 E32.23233
G1 X200.548 Y194.12 E32.26238
G1 X199.982 Y194.824 E32.29243
G1 X199.357 Y195.475 E32.32244
G1 X198.676 Y196.069 E32.3525
G1 X197.945 Y196.6 E32.38255
G1 X197.171 Y197.064 E32.41257
G1 X196.358 Y197.458 E32.44261
G1 X195.514 Y197.778 E32.47264
G1 X194.644 Y198.023 E32.5027
G1 X193.757 Y198.189 E32.53271
G1 X192.606 Y198.287 E32.57113
G1 X192.285 Y198.296 E32.58181
G1 X191.999 Y198.3 E32.59133
G1 X108.246 Y198.299 E35.37696
G1 X107.548 Y198.29 E35.40018
G1 X106.647 Y198.239 E35.4302
G1 X105.753 Y198.107 E35.46025
G1 X104.875 Y197.898 E35.49027
G1 X104.018 Y197.611 E35.52033
G1 X103.191 Y197.25 E35.55034
G1 X102.398 Y196.817 E35.58039
G1 X101.647 Y196.316 E35.61042
G1 X100.943 Y195.75 E35.64047
G1 X100.292 Y195.124 E35.6705
G1 X99.699 Y194.443 E35.70054
G1 X99.169 Y193.712 E35.73057
G1 X98.705 Y192.937 E35.76061
G1 X98.311 Y192.124 E35.79066
G1 X97.991 Y191.28 E35.82068
G1 X97.747 Y190.41 E35.85074
G1 X97.581 Y189.522 E35.88078
G1 X97.484 Y188.367 E35.91933
G1 X97.475 Y188.034 E35.93041
G1 X97.471 Y187.758 E35.93959
G1 X97.472 Y112.436 E38.44481
G1 X97.481 Y111.771 E38.46693
G1 X97.533 Y110.869 E38.49698
G1 X97.665 Y109.976 E38.52701
G1 X97.875 Y109.098 E38.55703
G1 X98.162 Y108.241 E38.58709
G1 X98.524 Y107.414 E38.61712
G1 X98.957 Y106.622 E38.64714
G1 X99.459 Y105.871 E38.67719
G1 X100.026 Y105.167 E38.70725
G1 X100.652 Y104.517 E38.73727
G1 F2700 E33.73727
;MESH:tinker.obj
G0 F6000 X108.481 Y111.235
G0 X108.481 Y112.71
G0 X108.453 Y187.318
G0 X191.729 Y187.5
;TYPE:WALL-INNER
G1 F2700 E38.73727
G1 F1200 X108.271 Y187.5 E41.51309
G1 X108.271 Y112.5 E44.0076
G1 X191.729 Y112.5 E46.78342
G1 X191.729 Y187.5 E49.27793
G0 F6000 X192.129 Y187.9
;TYPE:WALL-OUTER
G1 F1200 X107.871 Y187.9 E52.08037
G1 X107.871 Y112.1 E54.60149
G1 X192.129 Y112.1 E57.40392
G1 X192.129 Y187.9 E59.92504
G0 F6000 X191.859 Y187.63
G0 X191.619 Y187.11
G0 X191.339 Y187.11
;TYPE:SKIN
G1 F1200 X108.661 Y187.11 E62.67492
G1 X108.661 Y112.89 E65.14348
G1 X191.339 Y112.89 E67.89337
G1 X191.339 Y187.11 E70.36193
G1 F2700 E65.36193
G0 F6000 X191.619 Y187.11
G0 X191.619 Y113.113
G1 F2700 E70.36193
G0 F6000 X191.178 Y113.113
G1 F1200 X191.114 Y113.05 E70.36492
G0 F6000 X190.549 Y113.05
G1 F1200 X191.178 Y113.679 E70.39451
G0 F6000 X191.178 Y114.245
G1 F1200 X189.983 Y113.05 E70.45072
G0 F6000 X189.417 Y113.05
G1 F1200 X191.178 Y114.81 E70.53352
G0 F6000 X191.178 Y115.376
G1 F1200 X188.851 Y113.05 E70.64296
G0 F6000 X188.286 Y113.05
G1 F1200 X191.178 Y115.942 E70.77899
G0 F6000 X191.178 Y116.507
G1 F1200 X187.72 Y113.05 E70.94162
G0 F6000 X187.154 Y113.05
G1 F1200 X191.178 Y117.073 E71.13087
G0 F6000 X191.178 Y117.639
G1 F1200 X186.589 Y113.05 E71.34672
G0 F6000 X186.023 Y113.05
G1 F1200 X191.178 Y118.204 E71.58917
G0 F6000 X191.178 Y118.77
G1 F1200 X185.457 Y113.05 E71.85825
G0 F6000 X184.892 Y113.05
G1 F1200 X191.178 Y119.336 E72.15392
G0 F6000 X191.178 Y119.901
G1 F1200 X184.326 Y113.05 E72.4762
G0 F6000 X183.76 Y113.05
G1 F1200 X191.178 Y120.467 E72.82509
G0 F6000 X191.178 Y121.033
G1 F1200 X183.195 Y113.05 E73.20059
G0 F6000 X182.629 Y113.05
G1 F1200 X191.178 Y121.599 E73.60271
G0 F6000 X191.178 Y122.164
G1 F1200 X182.063 Y113.05 E74.03143
G0 F6000 X181.498 Y113.05
G1 F1200 X191.178 Y122.73 E74.48674
G0 F6000 X191.178 Y123.296
G1 F1200 X180.932 Y113.05 E74.96868
G0 F6000 X180.366 Y113.05
G1 F1200 X191.178 Y123.861 E75.47722
G0 F6000 X191.178 Y124.427
G1 F1200 X179.8 Y113.05 E76.01239
G0 F6000 X179.235 Y113.05
G1 F1200 X191.178 Y124.993 E76.57415
G0 F6000 X191.178 Y125.558
G1 F1200 X178.669 Y113.05 E77.16251
G0 F6000 X178.103 Y113.05
G1 F1200 X191.178 Y126.124 E77.77749
G0 F6000 X191.178 Y126.69
G1 F1200 X177.538 Y113.05 E78.41908
G0 F6000 X176.972 Y113.05
G1 F1200 X191.178 Y127.255 E79.08726
G0 F6000 X191.178 Y127.821
G1 F1200 X176.406 Y113.05 E79.78207
G0 F6000 X175.841 Y113.05
G1 F1200 X191.178 Y128.387 E80.50347
G0 F6000 X191.178 Y128.952
G1 F1200 X175.275 Y113.05 E81.25148
G0 F6000 X174.709 Y113.05
G1 F1200 X191.178 Y129.518 E82.02611
G0 F6000 X191.178 Y130.084
G1 F1200 X174.144 Y113.05 E82.82733
G0 F6000 X173.578 Y113.05
G1 F1200 X191.178 Y130.649 E83.65516
G0 F6000 X191.178 Y131.215
G1 F1200 X173.012 Y113.05 E84.50961
G0 F6000 X172.447 Y113.05
G1 F1200 X191.178 Y131.781 E85.39066
G0 F6000 X191.178 Y132.347
G1 F1200 X171.881 Y113.05 E86.29833
G0 F6000 X171.315 Y113.05
G1 F1200 X191.178 Y132.912 E87.2326
G0 F6000 X191.178 Y133.478
G1 F1200 X170.75 Y113.05 E88.19347
G0 F6000 X170.184 Y113.05
G1 F1200 X191.178 Y134.044 E89.18096
G0 F6000 X191.178 Y134.609
G1 F1200 X169.618 Y113.05 E90.19506
G0 F6000 X169.052 Y113.05
G1 F1200 X191.178 Y135.175 E91.23577
G0 F6000 X191.178 Y135.741
G1 F1200 X168.487 Y113.05 E92.30309
G0 F6000 X167.921 Y113.05
G1 F1200 X191.178 Y136.306 E93.397
G0 F6000 X191.178 Y136.872
G1 F1200 X167.355 Y113.05 E94.51754
G0 F6000 X166.79 Y113.05
G1 F1200 X191.178 Y137.438 E95.66468
G0 F6000 X191.178 Y138.003
G1 F1200 X166.224 Y113.05 E96.83841
G0 F6000 X165.658 Y113.05
G1 F1200 X191.178 Y138.569 E98.03877
G0 F6000 X191.178 Y139.135
G1 F1200 X165.093 Y113.05 E99.26573
G0 F6000 X164.527 Y113.05
G1 F1200 X191.178 Y139.7 E100.51929
G0 F6000 X191.178 Y140.266
G1 F1200 X163.961 Y113.05 E101.79947
G0 F6000 X163.396 Y113.05
G1 F1200 X191.178 Y140.832 E103.10625
G0 F6000 X191.178 Y141.398
G1 F1200 X162.83 Y113.05 E104.43965
G0 F6000 X162.264 Y113.05
G1 F1200 X191.178 Y141.963 E105.79965
G0 F6000 X191.178 Y142.529
G1 F1200 X161.699 Y113.05 E107.18626
G0 F6000 X161.133 Y113.05
G1 F1200 X191.178 Y143.095 E108.59948
G0 F6000 X191.178 Y143.66
G1 F1200 X160.567 Y113.05 E110.0393
G0 F6000 X160.002 Y113.05
G1 F1200 X191.178 Y144.226 E111.50573
G0 F6000 X191.178 Y144.792
G1 F1200 X159.436 Y113.05 E112.99877
G0 F6000 X158.87 Y113.05
G1 F1200 X191.178 Y145.357 E114.51842
G0 F6000 X191.178 Y145.923
G1 F1200 X158.304 Y113.05 E116.06469
G0 F6000 X157.739 Y113.05
G1 F1200 X191.178 Y146.489 E117.63756
G0 F6000 X191.178 Y147.054
G1 F1200 X157.173 Y113.05 E119.23702
G0 F6000 X156.607 Y113.05
G1 F1200 X191.178 Y147.62 E120.86311
G0 F6000 X191.178 Y148.186
G1 F1200 X156.042 Y113.05 E122.5158
G0 F6000 X155.476 Y113.05
G1 F1200 X191.178 Y148.751 E124.19509
G0 F6000 X191.178 Y149.317
G1 F1200 X154.91 Y113.05 E125.90101
G0 F6000 X154.345 Y113.05
G1 F1200 X191.178 Y149.883 E127.63352
G0 F6000 X191.178 Y150.448
G1 F1200 X153.779 Y113.05 E129.39263
G0 F6000 X153.213 Y113.05
G1 F1200 X191.178 Y151.014 E131.17836
G0 F6000 X191.178 Y151.58
G1 F1200 X152.648 Y113.05 E132.99069
G0 F6000 X152.082 Y113.05
G1 F1200 X191.178 Y152.146 E134.82965
G0 F6000 X191.178 Y152.711
G1 F1200 X151.516 Y113.05 E136.69521
G0 F6000 X150.951 Y113.05
G1 F1200 X191.178 Y153.277 E138.58736
G0 F6000 X191.178 Y153.843
G1 F1200 X150.385 Y113.05 E140.50614
G0 F6000 X149.819 Y113.05
G1 F1200 X191.178 Y154.408 E142.45152
G0 F6000 X191.178 Y154.974
G1 F1200 X149.253 Y113.05 E144.42351
G0 F6000 X148.688 Y113.05
G1 F1200 X191.178 Y155.54 E146.42211
G0 F6000 X191.178 Y156.105
G1 F1200 X148.122 Y113.05 E148.44731
G0 F6000 X147.556 Y113.05
G1 F1200 X191.178 Y156.671 E150.49913
G0 F6000 X191.178 Y157.237
G1 F1200 X146.991 Y113.05 E152.57756
G0 F6000 X146.425 Y113.05
G1 F1200 X191.178 Y157.802 E154.68258
G0 F6000 X191.178 Y158.368
G1 F1200 X145.859 Y113.05 E156.81422
G0 F6000 X145.294 Y113.05
G1 F1200 X191.178 Y158.934 E158.97246
G0 F6000 X191.178 Y159.499
G1 F1200 X144.728 Y113.05 E161.1573
G0 F6000 X144.162 Y113.05
G1 F1200 X191.178 Y160.065 E163.36877
G0 F6000 X191.178 Y160.631
G1 F1200 X143.597 Y113.05 E165.60683
G0 F6000 X143.031 Y113.05
G1 F1200 X191.178 Y161.197 E167.87152
G0 F6000 X191.178 Y161.762
G1 F1200 X142.465 Y113.05 E170.16281
G0 F6000 X141.9 Y113.05
G1 F1200 X191.178 Y162.328 E172.48069
G0 F6000 X191.178 Y162.894
G1 F1200 X141.334 Y113.05 E174.8252
G0 F6000 X140.768 Y113.05
G1 F1200 X191.178 Y163.459 E177.19631
G0 F6000 X191.178 Y164.025
G1 F1200 X140.203 Y113.05 E179.59402
G0 F6000 X139.637 Y113.05
G1 F1200 X191.178 Y164.591 E182.01835
G0 F6000 X191.178 Y165.156
G1 F1200 X139.071 Y113.05 E184.46928
G0 F6000 X138.505 Y113.05
G1 F1200 X191.178 Y165.722 E186.94683
G0 F6000 X191.178 Y166.288
G1 F1200 X137.94 Y113.05 E189.45098
G0 F6000 X137.374 Y113.05
G1 F1200 X191.178 Y166.853 E191.98174
G0 F6000 X191.178 Y167.419
G1 F1200 X136.808 Y113.05 E194.53911
G0 F6000 X136.243 Y113.05
G1 F1200 X191.178 Y167.985 E197.12308
G0 F6000 X191.178 Y168.55
G1 F1200 X135.677 Y113.05 E199.73366
G0 F6000 X135.111 Y113.05
G1 F1200 X191.178 Y169.116 E202.37085
G0 F6000 X191.178 Y169.682
