;FLAVOR:Marlin
;TIME:15079
;Filament used: 16.8554m
;Layer height: 0.2
;MINX:88.535
;MINY:100.9
;MINZ:0.2
;MAXX:211.465
;MAXY:199.1
;MAXZ:42
;Generated with Cura_SteamEngine 4.12.1
M140 S60
M105
M190 S60
M104 S210
M105
M109 S210
M82 ;absolute extrusion mode
M201 X500.00 Y500.00 Z100.00 E5000.00 ;Setup machine max acceleration
M203 X500.00 Y500.00 Z10.00 E50.00 ;Setup machine max feedrate
M204 P500.00 R1000.00 T500.00 ;Setup Print/Retract/Travel acceleration
M205 X8.00 Y8.00 Z0.40 E5.00 ;Setup Jerk
M220 S100 ;Reset Feedrate
M221 S100 ;Reset Flowrate

G28 ;Home

G92 E0 ;Reset Extruder
G1 Z2.0 F3000 ;Move Z Axis up
G1 X10.1 Y20 Z0.28 F5000.0 ;Move to start position
G1 X10.1 Y200.0 Z0.28 F1500.0 E15 ;Draw the first line
G1 X10.4 Y200.0 Z0.28 F5000.0 ;Move to side a little
G1 X10.4 Y20 Z0.28 F1500.0 E30 ;Draw the second line
G92 E0 ;Reset Extruder
G1 Z2.0 F3000 ;Move Z Axis up

G92 E0
G92 E0
G1 F2700 E-5
;LAYER_COUNT:210
;LAYER:0
M107
G0 F6000 X92.421 Y103.527 Z0.2
;TYPE:SKIRT
G1 F2700 E0
G1 F1200 X93.161 Y102.951 E0.03119
G1 X93.947 Y102.439 E0.06239
G1 X94.774 Y101.997 E0.09358
G1 X95.636 Y101.627 E0.12478
G1 X96.526 Y101.331 E0.15597
G1 X97.438 Y101.113 E0.18716
G1 X98.365 Y100.972 E0.21835
G1 X99.236 Y100.913 E0.24738
G1 X99.557 Y100.904 E0.25806
G1 X99.865 Y100.9 E0.26831
G1 X199.758 Y100.9 E3.59076
G1 X200.614 Y100.911 E3.61924
G1 X201.55 Y100.965 E3.65042
G1 X202.478 Y101.097 E3.6816
G1 X203.392 Y101.309 E3.7128
G1 X204.284 Y101.598 E3.74399
G1 X205.149 Y101.961 E3.77519
G1 X205.979 Y102.397 E3.80637
G1 X206.77 Y102.902 E3.83759
G1 X207.514 Y103.473 E3.86878
G1 X208.207 Y104.105 E3.89997
G1 X208.844 Y104.793 E3.93116
G1 X209.419 Y105.534 E3.96236
G1 X209.93 Y106.32 E3.99354
G1 X210.372 Y107.148 E4.02475
G1 X210.741 Y108.01 E4.05594
G1 X211.036 Y108.9 E4.08713
G1 X211.254 Y109.812 E4.11831
G1 X211.394 Y110.74 E4.14953
G1 X211.452 Y111.601 E4.17823
G1 X211.461 Y111.921 E4.18888
G1 X211.465 Y112.23 E4.19916
G1 X211.464 Y187.5 E6.70265
G1 X211.455 Y188.227 E6.72683
G1 X211.404 Y189.164 E6.75804
G1 X211.272 Y190.092 E6.78922
G1 X211.063 Y191.006 E6.8204
G1 X210.776 Y191.899 E6.8516
G1 X210.414 Y192.765 E6.88282
G1 X209.98 Y193.596 E6.914
G1 X209.476 Y194.387 E6.94519
G1 X208.907 Y195.132 E6.97637
G1 X208.276 Y195.827 E7.00759
G1 X207.589 Y196.465 E7.03878
G1 X206.85 Y197.042 E7.06996
G1 X206.064 Y197.554 E7.10116
G1 X205.238 Y197.997 E7.13234
G1 X204.376 Y198.369 E7.16356
G1 X203.487 Y198.665 E7.19473
G1 X202.575 Y198.885 E7.22593
G1 X201.648 Y199.026 E7.25712
G1 X200.764 Y199.087 E7.28659
G1 X200.443 Y199.096 E7.29727
G1 X200.135 Y199.1 E7.30751
G1 X100.1 Y199.099 E10.63469
G1 X99.402 Y199.09 E10.65791
G1 X98.466 Y199.038 E10.68909
G1 X97.537 Y198.906 E10.7203
G1 X96.623 Y198.696 E10.75149
G1 X95.73 Y198.409 E10.78269
G1 X94.865 Y198.046 E10.81389
G1 X94.034 Y197.612 E10.84507
G1 X93.243 Y197.108 E10.87626
G1 X92.498 Y196.538 E10.90746
G1 X91.804 Y195.907 E10.93866
G1 X91.167 Y195.22 E10.96982
G1 X90.59 Y194.48 E11.00103
G1 X90.078 Y193.694 E11.03223
G1 X89.635 Y192.867 E11.06344
G1 X89.264 Y192.006 E11.09462
G1 X88.968 Y191.116 E11.12581
G1 X88.749 Y190.204 E11.15701
G1 X88.608 Y189.277 E11.1882
G1 X88.548 Y188.388 E11.21783
G1 X88.539 Y188.055 E11.22891
G1 X88.535 Y187.758 E11.23879
G1 X88.536 Y112.425 E13.74438
G1 X88.545 Y111.76 E13.7665
G1 X88.598 Y110.824 E13.79768
G1 X88.73 Y109.895 E13.82889
G1 X88.941 Y108.981 E13.86009
G1 X89.229 Y108.089 E13.89126
G1 X89.592 Y107.224 E13.92246
G1 X90.027 Y106.393 E13.95366
G1 X90.531 Y105.603 E13.98483
G1 X91.101 Y104.858 E14.01603
G1 X91.733 Y104.164 E14.04725
G1 X92.421 Y103.527 E14.07843
G0 F6000 X92.809 Y103.723
G1 F1200 X93.545 Y103.17 E14.10905
G1 X94.326 Y102.682 E14.13968
G1 X95.146 Y102.264 E14.17029
G1 X96 Y101.919 E14.20093
G1 X96.88 Y101.649 E14.23154
G1 X97.78 Y101.457 E14.26215
G1 X98.694 Y101.343 E14.29279
G1 X99.247 Y101.313 E14.31121
G1 X99.568 Y101.304 E14.32189
G1 X99.865 Y101.3 E14.33177
G1 X199.758 Y101.3 E17.65422
G1 X200.608 Y101.311 E17.68249
G1 X201.527 Y101.364 E17.71311
G1 X202.438 Y101.497 E17.74373
G1 X203.334 Y101.708 E17.77435
G1 X204.208 Y101.996 E17.80495
G1 X205.055 Y102.359 E17.8356
G1 X205.866 Y102.794 E17.86621
G1 X206.636 Y103.298 E17.89682
G1 X207.36 Y103.867 E17.92745
G1 X208.032 Y104.497 E17.95809
G1 X208.647 Y105.182 E17.9887
G1 X209.2 Y105.918 E18.01932
G1 X209.687 Y106.699 E18.04994
G1 X210.104 Y107.52 E18.08056
G1 X210.449 Y108.374 E18.1112
G1 X210.718 Y109.254 E18.1418
G1 X210.91 Y110.155 E18.17244
G1 X211.023 Y111.068 E18.20304
G1 X211.052 Y111.612 E18.22116
G1 X211.061 Y111.932 E18.23181
G1 X211.065 Y112.23 E18.24172
G1 X211.064 Y187.495 E20.74504
G1 X211.055 Y188.222 E20.76923
G1 X211.004 Y189.141 E20.79984
G1 X210.873 Y190.053 E20.83048
G1 X210.663 Y190.949 E20.86109
G1 X210.377 Y191.824 E20.89171
G1 X210.016 Y192.671 E20.92233
G1 X209.582 Y193.483 E20.95296
G1 X209.08 Y194.255 E20.98359
G1 X208.512 Y194.98 E21.01422
G1 X207.884 Y195.653 E21.04483
G1 X207.2 Y196.269 E21.07545
G1 X206.465 Y196.823 E21.10606
G1 X205.685 Y197.312 E21.13668
G1 X204.865 Y197.731 E21.16731
G1 X204.012 Y198.077 E21.19793
G1 X203.132 Y198.348 E21.22855
G1 X202.232 Y198.541 E21.25917
G1 X201.318 Y198.656 E21.2898
G1 X200.753 Y198.687 E21.30863
G1 X200.432 Y198.696 E21.31931
G1 X200.135 Y198.7 E21.32918
G1 X100.105 Y198.699 E24.6562
G1 X99.407 Y198.69 E24.67941
G1 X98.488 Y198.638 E24.71003
G1 X97.577 Y198.507 E24.74064
G1 X96.681 Y198.297 E24.77125
G1 X95.806 Y198.01 E24.80188
G1 X94.959 Y197.648 E24.83251
G1 X94.147 Y197.214 E24.86314
G1 X93.376 Y196.712 E24.89374
G1 X92.651 Y196.144 E24.92437
G1 X91.978 Y195.515 E24.95501
G1 X91.363 Y194.831 E24.9856
G1 X90.809 Y194.096 E25.01621
G1 X90.321 Y193.315 E25.04684
G1 X89.902 Y192.495 E25.07747
G1 X89.556 Y191.642 E25.10809
G1 X89.286 Y190.762 E25.1387
G1 X89.093 Y189.861 E25.16935
G1 X88.979 Y188.948 E25.19995
G1 X88.948 Y188.377 E25.21897
G1 X88.939 Y188.044 E25.23005
G1 X88.935 Y187.758 E25.23957
G1 X88.936 Y112.431 E27.74495
G1 X88.945 Y111.766 E27.76707
G1 X88.997 Y110.846 E27.79772
G1 X89.129 Y109.935 E27.82834
G1 X89.34 Y109.039 E27.85895
G1 X89.627 Y108.164 E27.88958
G1 X89.99 Y107.318 E27.9202
G1 X90.424 Y106.506 E27.95082
G1 X90.927 Y105.735 E27.98144
G1 X91.496 Y105.011 E28.01207
G1 X92.124 Y104.339 E28.04266
G1 X92.809 Y103.723 E28.0733
G0 F6000 X93.197 Y103.924
G1 F1200 X93.929 Y103.394 E28.10336
G1 X94.704 Y102.931 E28.13338
G1 X95.517 Y102.538 E28.16342
G1 X96.362 Y102.218 E28.19347
G1 X97.231 Y101.975 E28.22348
G1 X98.119 Y101.809 E28.25353
G1 X99.258 Y101.713 E28.29155
G1 X99.579 Y101.704 E28.30223
G1 X99.865 Y101.7 E28.31174
G1 X199.758 Y101.7 E31.6342
G1 X200.602 Y101.711 E31.66227
G1 X201.504 Y101.764 E31.69232
G1 X202.397 Y101.896 E31.72235
G1 X203.275 Y102.107 E31.75238
G1 X204.131 Y102.395 E31.78242
G1 X204.958 Y102.757 E31.81244
G1 X205.75 Y103.192 E31.8425
G1 X206.501 Y103.694 E31.87254
G1 X207.204 Y104.261 E31.90258
G1 X207.854 Y104.888 E31.93262
G1 X208.446 Y105.57 E31.96266
G1 X208.976 Y106.301 E31.99269
G1 X209.438 Y107.077 E32.02273
G1 X209.831 Y107.89 E32.05276
G1 X210.149 Y108.735 E32.08279
G1 X210.392 Y109.605 E32.11283
G1 X210.557 Y110.493 E32.14287
G1 X210.652 Y111.623 E32.18059
G1 X210.661 Y111.943 E32.19124
G1 X210.665 Y112.23 E32.20078
G1 X210.664 Y187.49 E34.70394
G1 X210.655 Y188.217 E34.72812
G1 X210.604 Y189.119 E34.75817
G1 X210.473 Y190.013 E34.78822
G1 X210.264 Y190.891 E34.81824
G1 X209.978 Y191.748 E34.84829
G1 X209.617 Y192.576 E34.87834
G1 X209.185 Y193.368 E34.90834
G1 X208.684 Y194.12 E34.9384
G1 X208.118 Y194.824 E34.96844
G1 X207.493 Y195.475 E34.99846
G1 X206.812 Y196.069 E35.02851
G1 X206.081 Y196.6 E35.05856
G1 X205.307 Y197.064 E35.08858
G1 X204.494 Y197.458 E35.11863
G1 X203.65 Y197.778 E35.14865
G1 X202.78 Y198.023 E35.17871
G1 X201.893 Y198.189 E35.20872
G1 X200.742 Y198.287 E35.24714
G1 X200.421 Y198.296 E35.25782
G1 X200.135 Y198.3 E35.26734
G1 X100.11 Y198.299 E38.59418
G1 X99.412 Y198.29 E38.6174
G1 X98.511 Y198.239 E38.64742
G1 X97.617 Y198.107 E38.67747
G1 X96.739 Y197.898 E38.70749
G1 X95.882 Y197.611 E38.73755
G1 X95.055 Y197.25 E38.76756
G1 X94.262 Y196.817 E38.79761
G1 X93.511 Y196.316 E38.82764
G1 X92.807 Y195.75 E38.85768
G1 X92.156 Y195.124 E38.88772
G1 X91.563 Y194.443 E38.91776
G1 X91.033 Y193.712 E38.94779
G1 X90.569 Y192.937 E38.97783
G1 X90.175 Y192.124 E39.00788
G1 X89.855 Y191.28 E39.0379
G1 X89.611 Y190.41 E39.06795
G1 X89.445 Y189.522 E39.098
G1 X89.348 Y188.367 E39.13655
G1 X89.339 Y188.034 E39.14763
G1 X89.335 Y187.758 E39.15681
G1 X89.336 Y112.436 E41.66203
G1 X89.345 Y111.771 E41.68415
G1 X89.397 Y110.869 E41.7142
G1 X89.529 Y109.976 E41.74423
G1 X89.739 Y109.098 E41.77425
G1 X90.026 Y108.241 E41.80431
G1 X90.388 Y107.414 E41.83434
G1 X90.821 Y106.622 E41.86436
G1 X91.323 Y105.871 E41.89441
G1 X91.89 Y105.167 E41.92447
G1 X92.516 Y104.517 E41.95449
G1 X93.197 Y103.924 E41.98452
G1 F2700 E36.98452
;MESH:ENGR1411_Box_V4.obj
G0 F6000 X100.345 Y111.235
G0 X100.345 Y112.71
G0 X100.317 Y187.318
G0 X199.865 Y187.5
;TYPE:WALL-INNER
G1 F2700 E41.98452
G1 F1200 X100.135 Y187.5 E45.30155
G1 X100.135 Y112.5 E47.79606
G1 X199.865 Y112.5 E51.1131
G1 X199.865 Y187.5 E53.60761
G0 F6000 X200.265 Y187.9
;TYPE:WALL-OUTER
G1 F1200 X99.735 Y187.9 E56.95125
G1 X99.735 Y112.1 E59.47237
G1 X200.265 Y112.1 E62.81601
G1 X200.265 Y187.9 E65.33713
G0 F6000 X199.995 Y187.63
G0 X199.755 Y187.11
G0 X199.475 Y187.11
;TYPE:SKIN
G1 F1200 X100.525 Y187.11 E68.62822
G1 X100.525 Y112.89 E71.09678
G1 X199.475 Y112.89 E74.38787
G1 X199.475 Y187.11 E76.85644
G1 F2700 E71.85644
G0 F6000 X199.755 Y187.11
G0 X199.755 Y113.33
G1 F2700 E76.85644
G0 F6000 X199.314 Y113.33
G1 F1200 X199.034 Y113.05 E76.86961
G0 F6000 X198.468 Y113.05
G1 F1200 X199.314 Y113.895 E76.90938
G0 F6000 X199.314 Y114.461
G1 F1200 X197.902 Y113.05 E76.97577
G0 F6000 X197.337 Y113.05
G1 F1200 X199.314 Y115.027 E77.06877
G0 F6000 X199.314 Y115.592
G1 F1200 X196.771 Y113.05 E77.18836
G0 F6000 X196.205 Y113.05
G1 F1200 X199.314 Y116.158 E77.33457
G0 F6000 X199.314 Y116.724
G1 F1200 X195.64 Y113.05 E77.50738
G0 F6000 X195.074 Y113.05
G1 F1200 X199.314 Y117.289 E77.7068
G0 F6000 X199.314 Y117.855
G1 F1200 X194.508 Y113.05 E77.93283
G0 F6000 X193.943 Y113.05
G1 F1200 X199.314 Y118.421 E78.18547
G0 F6000 X199.314 Y118.986
G1 F1200 X193.377 Y113.05 E78.4647
G0 F6000 X192.811 Y113.05
G1 F1200 X199.314 Y119.552 E78.77056
G0 F6000 X199.314 Y120.118
G1 F1200 X192.246 Y113.05 E79.10302
G0 F6000 X191.68 Y113.05
G1 F1200 X199.314 Y120.684 E79.4621
G0 F6000 X199.314 Y121.249
G1 F1200 X191.114 Y113.05 E79.84778
G0 F6000 X190.549 Y113.05
G1 F1200 X199.314 Y121.815 E80.26006
G0 F6000 X199.314 Y122.381
G1 F1200 X189.983 Y113.05 E80.69896
G0 F6000 X189.417 Y113.05
G1 F1200 X199.314 Y122.946 E81.16446
G0 F6000 X199.314 Y123.512
G1 F1200 X188.851 Y113.05 E81.65658
G0 F6000 X188.286 Y113.05
G1 F1200 X199.314 Y124.078 E82.17531
G0 F6000 X199.314 Y124.643
G1 F1200 X187.72 Y113.05 E82.72063
G0 F6000 X187.154 Y113.05
G1 F1200 X199.314 Y125.209 E83.29257
G0 F6000 X199.314 Y125.775
G1 F1200 X186.589 Y113.05 E83.89112
G0 F6000 X186.023 Y113.05
G1 F1200 X199.314 Y126.34 E84.51626
G0 F6000 X199.314 Y126.906
G1 F1200 X185.457 Y113.05 E85.16803
G0 F6000 X184.892 Y113.05
G1 F1200 X199.314 Y127.472 E85.8464
G0 F6000 X199.314 Y128.037
G1 F1200 X184.326 Y113.05 E86.55136
G0 F6000 X183.76 Y113.05
G1 F1200 X199.314 Y128.603 E87.28295
G0 F6000 X199.314 Y129.169
G1 F1200 X183.195 Y113.05 E88.04114
G0 F6000 X182.629 Y113.05
G1 F1200 X199.314 Y129.735 E88.82595
G0 F6000 X199.314 Y130.3
G1 F1200 X182.063 Y113.05 E89.63736
G0 F6000 X181.498 Y113.05
G1 F1200 X199.314 Y130.866 E90.47537
G0 F6000 X199.314 Y131.432
G1 F1200 X180.932 Y113.05 E91.34001
G0 F6000 X180.366 Y113.05
G1 F1200 X199.314 Y131.997 E92.23124
G0 F6000 X199.314 Y132.563
G1 F1200 X179.8 Y113.05 E93.14909
G0 F6000 X179.235 Y113.05
G1 F1200 X199.314 Y133.129 E94.09355
G0 F6000 X199.314 Y133.694
G1 F1200 X178.669 Y113.05 E95.0646
G0 F6000 X178.103 Y113.05
G1 F1200 X199.314 Y134.26 E96.06228
G0 F6000 X199.314 Y134.826
G1 F1200 X177.538 Y113.05 E97.08656
G0 F6000 X176.972 Y113.05
G1 F1200 X199.314 Y135.391 E98.13743
G0 F6000 X199.314 Y135.957
G1 F1200 X176.406 Y113.05 E99.21493
G0 F6000 X175.841 Y113.05
G1 F1200 X199.314 Y136.523 E100.31903
G0 F6000 X199.314 Y137.088
G1 F1200 X175.275 Y113.05 E101.44973
G0 F6000 X174.709 Y113.05
G1 F1200 X199.314 Y137.654 E102.60705
G0 F6000 X199.314 Y138.22
G1 F1200 X174.144 Y113.05 E103.79097
G0 F6000 X173.578 Y113.05
G1 F1200 X199.314 Y138.785 E105.00148
G0 F6000 X199.314 Y139.351
G1 F1200 X173.012 Y113.05 E106.23863
G0 F6000 X172.447 Y113.05
G1 F1200 X199.314 Y139.917 E107.50237
G0 F6000 X199.314 Y140.483
G1 F1200 X171.881 Y113.05 E108.79273
G0 F6000 X171.315 Y113.05
G1 F1200 X199.314 Y141.048 E110.1097
G0 F6000 X199.314 Y141.614
G1 F1200 X170.75 Y113.05 E111.45326
G0 F6000 X170.184 Y113.05
G1 F1200 X199.314 Y142.18 E112.82344
G0 F6000 X199.314 Y142.745
G1 F1200 X169.618 Y113.05 E114.22023
G0 F6000 X169.052 Y113.05
G1 F1200 X199.314 Y143.311 E115.64364
G0 F6000 X199.314 Y143.877
G1 F1200 X168.487 Y113.05 E117.09365
G0 F6000 X167.921 Y113.05
G1 F1200 X199.314 Y144.442 E118.57025
G0 F6000 X199.314 Y145.008
G1 F1200 X167.355 Y113.05 E120.07348
G0 F6000 X166.79 Y113.05
G1 F1200 X199.314 Y145.574 E121.60331
G0 F6000 X199.314 Y146.139
G1 F1200 X166.224 Y113.05 E123.15974
G0 F6000 X165.658 Y113.05
G1 F1200 X199.314 Y146.705 E124.74279
G0 F6000 X199.314 Y147.271
G1 F1200 X165.093 Y113.05 E126.35244
G0 F6000 X164.527 Y113.05
G1 F1200 X199.314 Y147.836 E127.98869
G0 F6000 X199.314 Y148.402
G1 F1200 X163.961 Y113.05 E129.65157
G0 F6000 X163.396 Y113.05
G1 F1200 X199.314 Y148.968 E131.34104
G0 F6000 X199.314 Y149.533
G1 F1200 X162.83 Y113.05 E133.05711
G0 F6000 X162.264 Y113.05
G1 F1200 X199.314 Y150.099 E134.79981
G0 F6000 X199.314 Y150.665
G1 F1200 X161.699 Y113.05 E136.5691
G0 F6000 X161.133 Y113.05
G1 F1200 X199.314 Y151.231 E138.36502
G0 F6000 X199.314 Y151.796
G1 F1200 X160.567 Y113.05 E140.18753
G0 F6000 X160.002 Y113.05
G1 F1200 X199.314 Y152.362 E142.03665
G0 F6000 X199.314 Y152.928
G1 F1200 X159.436 Y113.05 E143.91239
G0 F6000 X158.87 Y113.05
G1 F1200 X199.314 Y153.493 E145.81473
G0 F6000 X199.314 Y154.059
G1 F1200 X158.304 Y113.05 E147.74369
G0 F6000 X157.739 Y113.05
G1 F1200 X199.314 Y154.625 E149.69925
G0 F6000 X199.314 Y155.19
G1 F1200 X157.173 Y113.05 E151.68141
G0 F6000 X156.607 Y113.05
G1 F1200 X199.314 Y155.756 E153.69019
G0 F6000 X199.314 Y156.322
G1 F1200 X156.042 Y113.05 E155.72557
G0 F6000 X155.476 Y113.05
G1 F1200 X199.314 Y156.887 E157.78755
G0 F6000 X199.314 Y157.453
G1 F1200 X154.91 Y113.05 E159.87616
G0 F6000 X154.345 Y113.05
G1 F1200 X199.314 Y158.019 E161.99136
G0 F6000 X199.314 Y158.584
G1 F1200 X153.779 Y113.05 E164.13317
G0 F6000 X153.213 Y113.05
G1 F1200 X199.314 Y159.15 E166.30159
G0 F6000 X199.314 Y159.716
G1 F1200 X152.648 Y113.05 E168.49662
G0 F6000 X152.082 Y113.05
G1 F1200 X199.314 Y160.282 E170.71827
G0 F6000 X199.314 Y160.847
G1 F1200 X151.516 Y113.05 E172.96651
G0 F6000 X150.951 Y113.05
G1 F1200 X199.314 Y161.413 E175.24136
G0 F6000 X199.314 Y161.979
G1 F1200 X150.385 Y113.05 E177.54283
G0 F6000 X149.819 Y113.05
G1 F1200 X199.314 Y162.544 E179.8709
G0 F6000 X199.314 Y163.11
G1 F1200 X149.253 Y113.05 E182.22559
G0 F6000 X148.688 Y113.05
G1 F1200 X199.314 Y163.676 E184.60689
G0 F6000 X199.314 Y164.241
G1 F1200 X148.122 Y113.05 E187.01478
G0 F6000 X147.556 Y113.05
G1 F1200 X199.314 Y164.807 E189.44929
G0 F6000 X199.314 Y165.373
G1 F1200 X146.991 Y113.05 E191.9104
G0 F6000 X146.425 Y113.05
G1 F1200 X199.314 Y165.938 E194.39812
G0 F6000 X199.314 Y166.504
G1 F1200 X145.859 Y113.05 E196.91245
G0 F6000 X145.294 Y113.05
G1 F1200 X199.314 Y167.07 E199.45339
G0 F6000 X199.314 Y167.635
G1 F1200 X144.728 Y113.05 E202.02092
G0 F6000 X144.162 Y113.05
G1 F1200 X199.314 Y168.201 E204.61508
G0 F6000 X199.314 Y168.767
G1 F1200 X143.597 Y113.05 E207.23584
G0 F6000 X143.031 Y113.05
G1 F1200 X199.314 Y169.332 E209.88319
G0 F6000 X199.314 Y169.898
G1 F1200 X142.465 Y113.05 E212.55717
G0 F6000 X141.9 Y113.05
